Pinyata/Assets/Materials/New Folder/Bloody/generated_lut.cube
TITLE "Exported LUT"
LUT_3D_SIZE 17
DOMAIN_MIN 0.0 0.0 0.0
DOMAIN_MAX 1.0 1.0 1.0
0.000000 0.167429 0.000000
0.000000 0.167429 0.000000
0.000000 0.167429 0.000000
0.000000 0.167429 0.000000
0.000000 0.167429 0.000000
0.000000 0.167429 0.000000
0.000000 0.167429 0.000000
0.132737 0.132737 0.000000
0.229437 0.132737 0.000000
0.292020 0.110395 0.000000
0.347973 0.110395 0.000000
0.400170 0.110395 0.000000
0.445250 0.110395 0.000000
0.489643 0.080560 0.000000
0.533469 0.080560 0.000000
0.573349 0.080560 0.000000
0.610149 0.080560 0.000000
0.000000 0.167429 0.000000
0.000000 0.167429 0.000000
0.000000 0.167429 0.000000
0.000000 0.167429 0.000000
0.000000 0.167429 0.000000
0.000000 0.167429 0.000000
0.000000 0.167429 0.000000
0.132737 0.132737 0.000000
0.229437 0.132737 0.000000
0.292020 0.110395 0.000000
0.347973 0.110395 0.000000
0.400170 0.110395 0.000000
0.445250 0.110395 0.000000
0.489643 0.080560 0.000000
0.533469 0.080560 0.000000
0.573349 0.080560 0.000000
0.610149 0.080560 0.000000
0.000000 0.167429 0.000000
0.000000 0.167429 0.000000
0.000000 0.167429 0.000000
0.000000 0.167429 0.000000
0.000000 0.167429 0.000000
0.000000 0.167429 0.000000
0.000000 0.167429 0.000000
0.132737 0.132737 0.000000
0.229437 0.132737 0.000000
0.292020 0.110395 0.000000
0.347973 0.110395 0.000000
0.400170 0.110395 0.000000
0.445250 0.110395 0.000000
0.489643 0.080560 0.000000
0.533469 0.080560 0.000000
0.573349 0.080560 0.000000
0.610149 0.080560 0.000000
0.000000 0.167429 0.000000
0.000000 0.167429 0.000000
0.000000 0.167429 0.000000
0.000000 0.167429 0.000000
0.000000 0.167429 0.000000
0.000000 0.167429 0.000000
0.000000 0.167429 0.000000
0.132737 0.132737 0.000000
0.229437 0.132737 0.000000
0.292020 0.110395 0.000000
0.347973 0.110395 0.000000
0.400170 0.110395 0.000000
0.445250 0.110395 0.000000
0.489643 0.080560 0.000000
0.533469 0.080560 0.000000
0.573349 0.080560 0.000000
0.610149 0.080560 0.000000
0.000000 0.167429 0.000000
0.000000 0.167429 0.000000
0.000000 0.167429 0.000000
0.000000 0.167429 0.000000
0.000000 0.167429 0.000000
0.000000 0.167429 0.000000
0.000000 0.167429 0.000000
0.132737 0.132737 0.000000
0.229437 0.132737 0.000000
0.292020 0.110395 0.000000
0.347973 0.110395 0.000000
0.400170 0.110395 0.000000
0.445250 0.110395 0.000000
0.489643 0.080560 0.000000
0.533469 0.080560 0.000000
0.573349 0.080560 0.000000
0.610149 0.080560 0.000000
0.000000 0.167429 0.000000
0.000000 0.167429 0.000000
0.000000 0.167429 0.000000
0.000000 0.167429 0.000000
0.000000 0.167429 0.000000
0.000000 0.167429 0.000000
0.000000 0.167429 0.000000
0.132737 0.132737 0.000000
0.229437 0.132737 0.000000
0.292020 0.110395 0.000000
0.347973 0.110395 0.000000
0.400170 0.110395 0.000000
0.445250 0.110395 0.000000
0.489643 0.080560 0.000000
0.533469 0.080560 0.000000
0.573349 0.080560 0.000000
0.610149 0.080560 0.000000
0.000000 0.167429 0.000000
0.000000 0.167429 0.000000
0.000000 0.167429 0.000000
0.000000 0.167429 0.000000
0.000000 0.167429 0.000000
0.000000 0.167429 0.000000
0.000000 0.167429 0.000000
0.132737 0.132737 0.000000
0.229437 0.132737 0.000000
0.292020 0.110395 0.000000
0.347973 0.110395 0.000000
0.400170 0.110395 0.000000
0.445250 0.110395 0.000000
0.489643 0.080560 0.000000
0.533469 0.080560 0.000000
0.573349 0.080560 0.000000
0.610149 0.080560 0.000000
0.000000 0.275870 0.000000
0.000000 0.275870 0.000000
0.000000 0.275870 0.000000
0.000000 0.275870 0.000000
0.000000 0.275870 0.000000
0.000000 0.275870 0.000000
0.000000 0.275870 0.000000
0.181896 0.267353 0.000000
0.292020 0.258497 0.000000
0.366368 0.258497 0.000000
0.435714 0.258497 0.000000
0.493821 0.258497 0.000000
0.548374 0.258497 0.000000
0.600380 0.249261 0.000000
0.650467 0.249261 0.000000
0.696304 0.249261 0.000000
0.741336 0.249261 0.000000
0.000000 0.341576 0.000000
0.000000 0.341576 0.000000
0.000000 0.341576 0.000000
0.000000 0.341576 0.000000
0.000000 0.341576 0.000000
0.000000 0.341576 0.000000
0.000000 0.341576 0.000000
0.207307 0.347973 0.000000
0.314409 0.347973 0.000000
0.400170 0.347973 0.000000
0.472486 0.347973 0.000000
0.537242 0.347973 0.000000
0.597081 0.347973 0.000000
0.650467 0.347973 0.000000
0.704503 0.347973 0.000000
0.753971 0.347973 0.000000
0.799821 0.347973 0.000000
0.000000 0.405478 0.000000
0.000000 0.405478 0.000000
0.000000 0.405478 0.000000
0.000000 0.405478 0.000000
0.000000 0.405478 0.000000
0.000000 0.405478 0.000000
0.000000 0.405478 0.000000
0.218708 0.410703 0.000000
0.335031 0.415850 0.000000
0.425921 0.415850 0.000000
0.502052 0.415850 0.000000
0.569861 0.420922 0.000000
0.632242 0.420922 0.000000
0.687988 0.420922 0.000000
0.743884 0.420922 0.000000
0.795144 0.425921 0.000000
0.842715 0.425921 0.000000
0.000000 0.459110 0.000000
0.000000 0.459110 0.000000
0.000000 0.459110 0.000000
0.000000 0.459110 0.000000
0.000000 0.459110 0.000000
0.000000 0.459110 0.000000
0.000000 0.459110 0.000000
0.229437 0.468079 0.000000
0.354232 0.472486 0.000000
0.445250 0.476845 0.000000
0.525826 0.481157 0.000000
0.597081 0.485422 0.000000
0.659353 0.485422 0.000000
0.717918 0.489643 0.000000
0.776095 0.489643 0.000000
0.824981 0.493821 0.000000
0.866393 0.493821 0.000000
0.000000 0.506108 0.000000
0.000000 0.506108 0.000000
0.000000 0.506108 0.000000
0.000000 0.506108 0.000000
0.000000 0.506108 0.000000
0.000000 0.506108 0.000000
0.000000 0.506108 0.000000
0.239595 0.521953 0.000000
0.372258 0.529664 0.000000
0.463620 0.533469 0.000000
0.544693 0.540983 0.000000
0.619733 0.544693 0.000000
0.682376 0.544693 0.000000
0.738778 0.548374 0.000000
0.788065 0.552025 0.000000
0.831684 0.555647 0.000000
0.872717 0.559241 0.000000
0.000000 0.555647 0.000000
0.000000 0.555647 0.000000
0.000000 0.555647 0.000000
0.000000 0.555647 0.000000
0.000000 0.555647 0.000000
0.000000 0.555647 0.000000
0.000000 0.555647 0.000000
0.249261 0.573349 0.000000
0.383716 0.583662 0.000000
0.481157 0.590417 0.000000
0.566348 0.593761 0.000000
0.635323 0.597081 0.000000
0.693545 0.600380 0.000000
0.748948 0.603657 0.000000
0.795144 0.606913 0.000000
0.838324 0.610149 0.000000
0.878987 0.610149 0.000000
0.000000 0.600380 0.000000
0.000000 0.600380 0.000000
0.000000 0.600380 0.000000
0.000000 0.600380 0.000000
0.000000 0.600380 0.000000
0.000000 0.600380 0.000000
0.000000 0.600380 0.000000
0.258497 0.622888 0.000000
0.394777 0.635323 0.000000
0.497957 0.641432 0.000000
0.576811 0.644460 0.000000
0.647472 0.647472 0.000000
0.704503 0.647472 0.000000
0.756468 0.650467 0.000000
0.802148 0.653445 0.000000
0.844901 0.653445 0.000000
0.883137 0.656407 0.000000
0.000000 0.644460 0.000000
0.000000 0.644460 0.000000
0.000000 0.644460 0.000000
0.000000 0.644460 0.000000
0.000000 0.644460 0.000000
0.000000 0.644460 0.000000
0.000000 0.644460 0.000000
0.267353 0.670983 0.000000
0.410703 0.682376 0.000000
0.510125 0.685189 0.000000
0.590417 0.685189 0.000000
0.656407 0.687988 0.000000
0.712588 0.690773 0.000000
0.763899 0.690773 0.000000
0.809079 0.693545 0.000000
0.849251 0.693545 0.000000
0.887264 0.696304 0.000000
0.000000 0.687988 0.000000
0.000000 0.687988 0.000000
0.000000 0.687988 0.000000
0.000000 0.687988 0.000000
0.000000 0.687988 0.000000
0.000000 0.687988 0.000000
0.000000 0.687988 0.000000
0.275870 0.717918 0.000000
0.425921 0.720565 0.000000
0.521953 0.723201 0.000000
0.600380 0.725825 0.000000
0.665199 0.725825 0.000000
0.723201 0.728438 0.000000
0.771244 0.728438 0.000000
0.815939 0.728438 0.000000
0.855728 0.731039 0.000000
0.891368 0.731039 0.000000
0.000000 0.731039 0.000000
0.000000 0.731039 0.000000
0.000000 0.731039 0.000000
0.000000 0.731039 0.000000
0.000000 0.731039 0.000000
0.000000 0.731039 0.000000
0.000000 0.731039 0.000000
0.292020 0.756468 0.000000
0.440513 0.756468 0.000000
0.537242 0.758955 0.000000
0.613363 0.758955 0.000000
0.673853 0.758955 0.000000
0.728438 0.761432 0.000000
0.778507 0.761432 0.000000
0.820475 0.761432 0.000000
0.860013 0.761432 0.000000
0.895449 0.761432 0.000000
0.000000 0.167429 0.000000
0.000000 0.167429 0.000000
0.000000 0.167429 0.000000
0.000000 0.167429 0.000000
0.000000 0.167429 0.000000
0.000000 0.167429 0.000000
0.000000 0.167429 0.000000
0.132737 0.132737 0.000000
0.229437 0.132737 0.000000
0.292020 0.110395 0.000000
0.347973 0.110395 0.000000
0.400170 0.110395 0.000000
0.445250 0.110395 0.000000
0.489643 0.080560 0.000000
0.533469 0.080560 0.000000
0.573349 0.080560 0.000000
0.610149 0.080560 0.000000
0.000000 0.167429 0.000000
0.000000 0.167429 0.000000
0.000000 0.167429 0.000000
0.000000 0.167429 0.000000
0.000000 0.167429 0.000000
0.000000 0.167429 0.000000
0.000000 0.167429 0.000000
0.132737 0.132737 0.000000
0.229437 0.132737 0.000000
0.292020 0.110395 0.000000
0.347973 0.110395 0.000000
0.400170 0.110395 0.000000
0.445250 0.110395 0.000000
0.489643 0.080560 0.000000
0.533469 0.080560 0.000000
0.573349 0.080560 0.000000
0.610149 0.080560 0.000000
0.000000 0.167429 0.000000
0.000000 0.167429 0.000000
0.000000 0.167429 0.000000
0.000000 0.167429 0.000000
0.000000 0.167429 0.000000
0.000000 0.167429 0.000000
0.000000 0.167429 0.000000
0.132737 0.132737 0.000000
0.229437 0.132737 0.000000
0.292020 0.110395 0.000000
0.347973 0.110395 0.000000
0.400170 0.110395 0.000000
0.445250 0.110395 0.000000
0.489643 0.080560 0.000000
0.533469 0.080560 0.000000
0.573349 0.080560 0.000000
0.610149 0.080560 0.000000
0.000000 0.167429 0.000000
0.000000 0.167429 0.000000
0.000000 0.167429 0.000000
0.000000 0.167429 0.000000
0.000000 0.167429 0.000000
0.000000 0.167429 0.000000
0.000000 0.167429 0.000000
0.132737 0.132737 0.000000
0.229437 0.132737 0.000000
0.292020 0.110395 0.000000
0.347973 0.110395 0.000000
0.400170 0.110395 0.000000
0.445250 0.110395 0.000000
0.489643 0.080560 0.000000
0.533469 0.080560 0.000000
0.573349 0.080560 0.000000
0.610149 0.080560 0.000000
0.000000 0.167429 0.000000
0.000000 0.167429 0.000000
0.000000 0.167429 0.000000
0.000000 0.167429 0.000000
0.000000 0.167429 0.000000
0.000000 0.167429 0.000000
0.000000 0.167429 0.000000
0.132737 0.132737 0.000000
0.229437 0.132737 0.000000
0.292020 0.110395 0.000000
0.347973 0.110395 0.000000
0.400170 0.110395 0.000000
0.445250 0.110395 0.000000
0.489643 0.080560 0.000000
0.533469 0.080560 0.000000
0.573349 0.080560 0.000000
0.610149 0.080560 0.000000
0.000000 0.167429 0.000000
0.000000 0.167429 0.000000
0.000000 0.167429 0.000000
0.000000 0.167429 0.000000
0.000000 0.167429 0.000000
0.000000 0.167429 0.000000
0.000000 0.167429 0.000000
0.132737 0.132737 0.000000
0.229437 0.132737 0.000000
0.292020 0.110395 0.000000
0.347973 0.110395 0.000000
0.400170 0.110395 0.000000
0.445250 0.110395 0.000000
0.489643 0.080560 0.000000
0.533469 0.080560 0.000000
0.573349 0.080560 0.000000
0.610149 0.080560 0.000000
0.000000 0.167429 0.000000
0.000000 0.167429 0.000000
0.000000 0.167429 0.000000
0.000000 0.167429 0.000000
0.000000 0.167429 0.000000
0.000000 0.167429 0.000000
0.000000 0.167429 0.000000
0.132737 0.132737 0.000000
0.229437 0.132737 0.000000
0.292020 0.110395 0.000000
0.347973 0.110395 0.000000
0.400170 0.110395 0.000000
0.445250 0.110395 0.000000
0.489643 0.080560 0.000000
0.533469 0.080560 0.000000
0.573349 0.080560 0.000000
0.610149 0.080560 0.000000
0.000000 0.275870 0.000000
0.000000 0.275870 0.000000
0.000000 0.275870 0.000000
0.000000 0.275870 0.000000
0.000000 0.275870 0.000000
0.000000 0.275870 0.000000
0.000000 0.275870 0.000000
0.181896 0.267353 0.000000
0.292020 0.258497 0.000000
0.366368 0.258497 0.000000
0.435714 0.258497 0.000000
0.493821 0.258497 0.000000
0.548374 0.258497 0.000000
0.600380 0.249261 0.000000
0.650467 0.249261 0.000000
0.696304 0.249261 0.000000
0.741336 0.249261 0.000000
0.000000 0.341576 0.000000
0.000000 0.341576 0.000000
0.000000 0.341576 0.000000
0.000000 0.341576 0.000000
0.000000 0.341576 0.000000
0.000000 0.341576 0.000000
0.000000 0.341576 0.000000
0.207307 0.347973 0.000000
0.314409 0.347973 0.000000
0.400170 0.347973 0.000000
0.472486 0.347973 0.000000
0.537242 0.347973 0.000000
0.597081 0.347973 0.000000
0.650467 0.347973 0.000000
0.704503 0.347973 0.000000
0.753971 0.347973 0.000000
0.799821 0.347973 0.000000
0.000000 0.405478 0.000000
0.000000 0.405478 0.000000
0.000000 0.405478 0.000000
0.000000 0.405478 0.000000
0.000000 0.405478 0.000000
0.000000 0.405478 0.000000
0.000000 0.405478 0.000000
0.218708 0.410703 0.000000
0.335031 0.415850 0.000000
0.425921 0.415850 0.000000
0.502052 0.415850 0.000000
0.569861 0.420922 0.000000
0.632242 0.420922 0.000000
0.687988 0.420922 0.000000
0.743884 0.420922 0.000000
0.795144 0.425921 0.000000
0.842715 0.425921 0.000000
0.000000 0.459110 0.000000
0.000000 0.459110 0.000000
0.000000 0.459110 0.000000
0.000000 0.459110 0.000000
0.000000 0.459110 0.000000
0.000000 0.459110 0.000000
0.000000 0.459110 0.000000
0.229437 0.468079 0.000000
0.354232 0.472486 0.000000
0.445250 0.476845 0.000000
0.525826 0.481157 0.000000
0.597081 0.485422 0.000000
0.659353 0.485422 0.000000
0.717918 0.489643 0.000000
0.776095 0.489643 0.000000
0.824981 0.493821 0.000000
0.866393 0.493821 0.000000
0.000000 0.506108 0.000000
0.000000 0.506108 0.000000
0.000000 0.506108 0.000000
0.000000 0.506108 0.000000
0.000000 0.506108 0.000000
0.000000 0.506108 0.000000
0.000000 0.506108 0.000000
0.239595 0.521953 0.000000
0.372258 0.529664 0.000000
0.463620 0.533469 0.000000
0.544693 0.540983 0.000000
0.619733 0.544693 0.000000
0.682376 0.544693 0.000000
0.738778 0.548374 0.000000
0.788065 0.552025 0.000000
0.831684 0.555647 0.000000
0.872717 0.559241 0.000000
0.000000 0.555647 0.000000
0.000000 0.555647 0.000000
0.000000 0.555647 0.000000
0.000000 0.555647 0.000000
0.000000 0.555647 0.000000
0.000000 0.555647 0.000000
0.000000 0.555647 0.000000
0.249261 0.573349 0.000000
0.383716 0.583662 0.000000
0.481157 0.590417 0.000000
0.566348 0.593761 0.000000
0.635323 0.597081 0.000000
0.693545 0.600380 0.000000
0.748948 0.603657 0.000000
0.795144 0.606913 0.000000
0.838324 0.610149 0.000000
0.878987 0.610149 0.000000
0.000000 0.600380 0.000000
0.000000 0.600380 0.000000
0.000000 0.600380 0.000000
0.000000 0.600380 0.000000
0.000000 0.600380 0.000000
0.000000 0.600380 0.000000
0.000000 0.600380 0.000000
0.258497 0.622888 0.000000
0.394777 0.635323 0.000000
0.497957 0.641432 0.000000
0.576811 0.644460 0.000000
0.647472 0.647472 0.000000
0.704503 0.647472 0.000000
0.756468 0.650467 0.000000
0.802148 0.653445 0.000000
0.844901 0.653445 0.000000
0.883137 0.656407 0.000000
0.000000 0.644460 0.000000
0.000000 0.644460 0.000000
0.000000 0.644460 0.000000
0.000000 0.644460 0.000000
0.000000 0.644460 0.000000
0.000000 0.644460 0.000000
0.000000 0.644460 0.000000
0.267353 0.670983 0.000000
0.410703 0.682376 0.000000
0.510125 0.685189 0.000000
0.590417 0.685189 0.000000
0.656407 0.687988 0.000000
0.712588 0.690773 0.000000
0.763899 0.690773 0.000000
0.809079 0.693545 0.000000
0.849251 0.693545 0.000000
0.887264 0.696304 0.000000
0.000000 0.687988 0.000000
0.000000 0.687988 0.000000
0.000000 0.687988 0.000000
0.000000 0.687988 0.000000
0.000000 0.687988 0.000000
0.000000 0.687988 0.000000
0.000000 0.687988 0.000000
0.275870 0.717918 0.000000
0.425921 0.720565 0.000000
0.521953 0.723201 0.000000
0.600380 0.725825 0.000000
0.665199 0.725825 0.000000
0.723201 0.728438 0.000000
0.771244 0.728438 0.000000
0.815939 0.728438 0.000000
0.855728 0.731039 0.000000
0.891368 0.731039 0.000000
0.000000 0.731039 0.000000
0.000000 0.731039 0.000000
0.000000 0.731039 0.000000
0.000000 0.731039 0.000000
0.000000 0.731039 0.000000
0.000000 0.731039 0.000000
0.000000 0.731039 0.000000
0.292020 0.756468 0.000000
0.440513 0.756468 0.000000
0.537242 0.758955 0.000000
0.613363 0.758955 0.000000
0.673853 0.758955 0.000000
0.728438 0.761432 0.000000
0.778507 0.761432 0.000000
0.820475 0.761432 0.000000
0.860013 0.761432 0.000000
0.895449 0.761432 0.000000
0.000000 0.167429 0.000000
0.000000 0.167429 0.000000
0.000000 0.167429 0.000000
0.000000 0.167429 0.000000
0.000000 0.167429 0.000000
0.000000 0.167429 0.000000
0.000000 0.167429 0.000000
0.132737 0.132737 0.000000
0.229437 0.132737 0.000000
0.292020 0.110395 0.000000
0.347973 0.110395 0.000000
0.400170 0.110395 0.000000
0.445250 0.110395 0.000000
0.489643 0.080560 0.000000
0.533469 0.080560 0.000000
0.573349 0.080560 0.000000
0.610149 0.080560 0.000000
0.000000 0.167429 0.000000
0.000000 0.167429 0.000000
0.000000 0.167429 0.000000
0.000000 0.167429 0.000000
0.000000 0.167429 0.000000
0.000000 0.167429 0.000000
0.000000 0.167429 0.000000
0.132737 0.132737 0.000000
0.229437 0.132737 0.000000
0.292020 0.110395 0.000000
0.347973 0.110395 0.000000
0.400170 0.110395 0.000000
0.445250 0.110395 0.000000
0.489643 0.080560 0.000000
0.533469 0.080560 0.000000
0.573349 0.080560 0.000000
0.610149 0.080560 0.000000
0.000000 0.167429 0.000000
0.000000 0.167429 0.000000
0.000000 0.167429 0.000000
0.000000 0.167429 0.000000
0.000000 0.167429 0.000000
0.000000 0.167429 0.000000
0.000000 0.167429 0.000000
0.132737 0.132737 0.000000
0.229437 0.132737 0.000000
0.292020 0.110395 0.000000
0.347973 0.110395 0.000000
0.400170 0.110395 0.000000
0.445250 0.110395 0.000000
0.489643 0.080560 0.000000
0.533469 0.080560 0.000000
0.573349 0.080560 0.000000
0.610149 0.080560 0.000000
0.000000 0.167429 0.000000
0.000000 0.167429 0.000000
0.000000 0.167429 0.000000
0.000000 0.167429 0.000000
0.000000 0.167429 0.000000
0.000000 0.167429 0.000000
0.000000 0.167429 0.000000
0.132737 0.132737 0.000000
0.229437 0.132737 0.000000
0.292020 0.110395 0.000000
0.347973 0.110395 0.000000
0.400170 0.110395 0.000000
0.445250 0.110395 0.000000
0.489643 0.080560 0.000000
0.533469 0.080560 0.000000
0.573349 0.080560 0.000000
0.610149 0.080560 0.000000
0.000000 0.167429 0.000000
0.000000 0.167429 0.000000
0.000000 0.167429 0.000000
0.000000 0.167429 0.000000
0.000000 0.167429 0.000000
0.000000 0.167429 0.000000
0.000000 0.167429 0.000000
0.132737 0.132737 0.000000
0.229437 0.132737 0.000000
0.292020 0.110395 0.000000
0.347973 0.110395 0.000000
0.400170 0.110395 0.000000
0.445250 0.110395 0.000000
0.489643 0.080560 0.000000
0.533469 0.080560 0.000000
0.573349 0.080560 0.000000
0.610149 0.080560 0.000000
0.000000 0.167429 0.000000
0.000000 0.167429 0.000000
0.000000 0.167429 0.000000
0.000000 0.167429 0.000000
0.000000 0.167429 0.000000
0.000000 0.167429 0.000000
0.000000 0.167429 0.000000
0.132737 0.132737 0.000000
0.229437 0.132737 0.000000
0.292020 0.110395 0.000000
0.347973 0.110395 0.000000
0.400170 0.110395 0.000000
0.445250 0.110395 0.000000
0.489643 0.080560 0.000000
0.533469 0.080560 0.000000
0.573349 0.080560 0.000000
0.610149 0.080560 0.000000
0.000000 0.167429 0.000000
0.000000 0.167429 0.000000
0.000000 0.167429 0.000000
0.000000 0.167429 0.000000
0.000000 0.167429 0.000000
0.000000 0.167429 0.000000
0.000000 0.167429 0.000000
0.132737 0.132737 0.000000
0.229437 0.132737 0.000000
0.292020 0.110395 0.000000
0.347973 0.110395 0.000000
0.400170 0.110395 0.000000
0.445250 0.110395 0.000000
0.489643 0.080560 0.000000
0.533469 0.080560 0.000000
0.573349 0.080560 0.000000
0.610149 0.080560 0.000000
0.000000 0.275870 0.000000
0.000000 0.275870 0.000000
0.000000 0.275870 0.000000
0.000000 0.275870 0.000000
0.000000 0.275870 0.000000
0.000000 0.275870 0.000000
0.000000 0.275870 0.000000
0.181896 0.267353 0.000000
0.292020 0.258497 0.000000
0.366368 0.258497 0.000000
0.435714 0.258497 0.000000
0.493821 0.258497 0.000000
0.548374 0.258497 0.000000
0.600380 0.249261 0.000000
0.650467 0.249261 0.000000
0.696304 0.249261 0.000000
0.741336 0.249261 0.000000
0.000000 0.341576 0.000000
0.000000 0.341576 0.000000
0.000000 0.341576 0.000000
0.000000 0.341576 0.000000
0.000000 0.341576 0.000000
0.000000 0.341576 0.000000
0.000000 0.341576 0.000000
0.207307 0.347973 0.000000
0.314409 0.347973 0.000000
0.400170 0.347973 0.000000
0.472486 0.347973 0.000000
0.537242 0.347973 0.000000
0.597081 0.347973 0.000000
0.650467 0.347973 0.000000
0.704503 0.347973 0.000000
0.753971 0.347973 0.000000
0.799821 0.347973 0.000000
0.000000 0.405478 0.000000
0.000000 0.405478 0.000000
0.000000 0.405478 0.000000
0.000000 0.405478 0.000000
0.000000 0.405478 0.000000
0.000000 0.405478 0.000000
0.000000 0.405478 0.000000
0.218708 0.410703 0.000000
0.335031 0.415850 0.000000
0.425921 0.415850 0.000000
0.502052 0.415850 0.000000
0.569861 0.420922 0.000000
0.632242 0.420922 0.000000
0.687988 0.420922 0.000000
0.743884 0.420922 0.000000
0.795144 0.425921 0.000000
0.842715 0.425921 0.000000
0.000000 0.459110 0.000000
0.000000 0.459110 0.000000
0.000000 0.459110 0.000000
0.000000 0.459110 0.000000
0.000000 0.459110 0.000000
0.000000 0.459110 0.000000
0.000000 0.459110 0.000000
0.229437 0.468079 0.000000
0.354232 0.472486 0.000000
0.445250 0.476845 0.000000
0.525826 0.481157 0.000000
0.597081 0.485422 0.000000
0.659353 0.485422 0.000000
0.717918 0.489643 0.000000
0.776095 0.489643 0.000000
0.824981 0.493821 0.000000
0.866393 0.493821 0.000000
0.000000 0.506108 0.000000
0.000000 0.506108 0.000000
0.000000 0.506108 0.000000
0.000000 0.506108 0.000000
0.000000 0.506108 0.000000
0.000000 0.506108 0.000000
0.000000 0.506108 0.000000
0.239595 0.521953 0.000000
0.372258 0.529664 0.000000
0.463620 0.533469 0.000000
0.544693 0.540983 0.000000
0.619733 0.544693 0.000000
0.682376 0.544693 0.000000
0.738778 0.548374 0.000000
0.788065 0.552025 0.000000
0.831684 0.555647 0.000000
0.872717 0.559241 0.000000
0.000000 0.555647 0.000000
0.000000 0.555647 0.000000
0.000000 0.555647 0.000000
0.000000 0.555647 0.000000
0.000000 0.555647 0.000000
0.000000 0.555647 0.000000
0.000000 0.555647 0.000000
0.249261 0.573349 0.000000
0.383716 0.583662 0.000000
0.481157 0.590417 0.000000
0.566348 0.593761 0.000000
0.635323 0.597081 0.000000
0.693545 0.600380 0.000000
0.748948 0.603657 0.000000
0.795144 0.606913 0.000000
0.838324 0.610149 0.000000
0.878987 0.610149 0.000000
0.000000 0.600380 0.000000
0.000000 0.600380 0.000000
0.000000 0.600380 0.000000
0.000000 0.600380 0.000000
0.000000 0.600380 0.000000
0.000000 0.600380 0.000000
0.000000 0.600380 0.000000
0.258497 0.622888 0.000000
0.394777 0.635323 0.000000
0.497957 0.641432 0.000000
0.576811 0.644460 0.000000
0.647472 0.647472 0.000000
0.704503 0.647472 0.000000
0.756468 0.650467 0.000000
0.802148 0.653445 0.000000
0.844901 0.653445 0.000000
0.883137 0.656407 0.000000
0.000000 0.644460 0.000000
0.000000 0.644460 0.000000
0.000000 0.644460 0.000000
0.000000 0.644460 0.000000
0.000000 0.644460 0.000000
0.000000 0.644460 0.000000
0.000000 0.644460 0.000000
0.267353 0.670983 0.000000
0.410703 0.682376 0.000000
0.510125 0.685189 0.000000
0.590417 0.685189 0.000000
0.656407 0.687988 0.000000
0.712588 0.690773 0.000000
0.763899 0.690773 0.000000
0.809079 0.693545 0.000000
0.849251 0.693545 0.000000
0.887264 0.696304 0.000000
0.000000 0.687988 0.000000
0.000000 0.687988 0.000000
0.000000 0.687988 0.000000
0.000000 0.687988 0.000000
0.000000 0.687988 0.000000
0.000000 0.687988 0.000000
0.000000 0.687988 0.000000
0.275870 0.717918 0.000000
0.425921 0.720565 0.000000
0.521953 0.723201 0.000000
0.600380 0.725825 0.000000
0.665199 0.725825 0.000000
0.723201 0.728438 0.000000
0.771244 0.728438 0.000000
0.815939 0.728438 0.000000
0.855728 0.731039 0.000000
0.891368 0.731039 0.000000
0.000000 0.731039 0.000000
0.000000 0.731039 0.000000
0.000000 0.731039 0.000000
0.000000 0.731039 0.000000
0.000000 0.731039 0.000000
0.000000 0.731039 0.000000
0.000000 0.731039 0.000000
0.292020 0.756468 0.000000
0.440513 0.756468 0.000000
0.537242 0.758955 0.000000
0.613363 0.758955 0.000000
0.673853 0.758955 0.000000
0.728438 0.761432 0.000000
0.778507 0.761432 0.000000
0.820475 0.761432 0.000000
0.860013 0.761432 0.000000
0.895449 0.761432 0.000000
0.000000 0.167429 0.000000
0.000000 0.167429 0.000000
0.000000 0.167429 0.000000
0.000000 0.167429 0.000000
0.000000 0.167429 0.000000
0.000000 0.167429 0.000000
0.000000 0.167429 0.000000
0.132737 0.132737 0.000000
0.229437 0.132737 0.000000
0.292020 0.110395 0.000000
0.347973 0.110395 0.000000
0.400170 0.110395 0.000000
0.445250 0.110395 0.000000
0.489643 0.080560 0.000000
0.533469 0.080560 0.000000
0.573349 0.080560 0.000000
0.610149 0.080560 0.000000
0.000000 0.167429 0.000000
