Pinyata/Assets/Materials/New Folder/Bloody/generated_lut.cube
TITLE "Exported LUT"
LUT_3D_SIZE 5
DOMAIN_MIN 0.0 0.0 0.0
DOMAIN_MAX 1.0 1.0 1.0
0.000000 0.167429 0.000000
0.000000 0.167429 0.000000
0.229437 0.132737 0.000000
0.445250 0.110395 0.000000
0.610149 0.080560 0.000000
0.000000 0.167429 0.000000
0.000000 0.167429 0.000000
0.229437 0.132737 0.000000
0.445250 0.110395 0.000000
0.610149 0.080560 0.000000
0.000000 0.341576 0.000000
0.000000 0.341576 0.000000
0.314409 0.347973 0.000000
0.597081 0.347973 0.000000
0.799821 0.347973 0.000000
0.000000 0.555647 0.000000
0.000000 0.555647 0.000000
0.383716 0.583662 0.000000
0.693545 0.600380 0.000000
0.878987 0.610149 0.000000
0.000000 0.731039 0.000000
0.000000 0.731039 0.000000
0.440513 0.756468 0.000000
0.728438 0.761432 0.000000
0.895449 0.761432 0.000000
0.000000 0.167429 0.000000
0.000000 0.167429 0.000000
0.229437 0.132737 0.000000
0.445250 0.110395 0.000000
0.610149 0.080560 0.000000
0.000000 0.167429 0.000000
0.000000 0.167429 0.000000
0.229437 0.132737 0.000000
0.445250 0.110395 0.000000
0.610149 0.080560 0.000000
0.000000 0.341576 0.000000
0.000000 0.341576 0.000000
0.314409 0.347973 0.000000
0.597081 0.347973 0.000000
0.799821 0.347973 0.000000
0.000000 0.555647 0.000000
0.000000 0.555647 0.000000
0.383716 0.583662 0.000000
0.693545 0.600380 0.000000
0.878987 0.610149 0.000000
0.000000 0.731039 0.000000
0.000000 0.731039 0.000000
0.440513 0.756468 0.000000
0.728438 0.761432 0.000000
0.895449 0.761432 0.000000
0.000000 0.151280 0.249261
0.000000 0.151280 0.249261
0.249261 0.110395 0.267353
0.481157 0.080560 0.275870
0.650467 0.080560 0.284083
0.000000 0.151280 0.249261
0.000000 0.151280 0.249261
0.249261 0.110395 0.267353
0.481157 0.080560 0.275870
0.650467 0.080560 0.284083
0.000000 0.341576 0.292020
0.000000 0.341576 0.292020
0.341576 0.347973 0.307164
0.632242 0.347973 0.321460
0.842715 0.347973 0.328330
0.000000 0.566348 0.321460
0.000000 0.566348 0.321460
0.410703 0.593761 0.341576
0.715259 0.610149 0.341576
0.891368 0.619733 0.341576
0.000000 0.746421 0.341576
0.000000 0.746421 0.341576
0.468079 0.758955 0.347973
0.748948 0.761432 0.354232
0.907561 0.763899 0.354232
0.000000 0.132737 0.389294
0.000000 0.132737 0.389294
0.258497 0.110395 0.435714
0.502052 0.080560 0.468079
0.679549 0.000000 0.485422
0.000000 0.132737 0.389294
0.000000 0.132737 0.389294
0.258497 0.110395 0.435714
0.502052 0.080560 0.468079
0.679549 0.000000 0.485422
0.000000 0.347973 0.489643
0.000000 0.347973 0.489643
0.354232 0.347973 0.529664
0.656407 0.347973 0.559241
0.872717 0.347973 0.580248
0.000000 0.573349 0.555647
0.000000 0.573349 0.555647
0.430851 0.600380 0.583662
0.728438 0.613363 0.566348
0.899508 0.626025 0.559241
0.000000 0.753971 0.593761
0.000000 0.753971 0.593761
0.489643 0.758955 0.569861
0.761432 0.763899 0.552025
0.913545 0.766357 0.544693
0.000000 0.132737 0.493821
0.000000 0.132737 0.493821
0.275870 0.080560 0.552025
0.518046 0.080560 0.597081
0.696304 0.000000 0.622888
0.000000 0.132737 0.493821
0.000000 0.132737 0.493821
0.275870 0.080560 0.552025
0.518046 0.080560 0.597081
0.696304 0.000000 0.622888
0.000000 0.347973 0.622888
0.000000 0.347973 0.622888
0.366368 0.347973 0.682376
0.673853 0.347973 0.723201
0.881065 0.354232 0.733630
0.000000 0.576811 0.712588
0.000000 0.576811 0.712588
0.445250 0.603657 0.733630
0.738778 0.619733 0.707210
0.905556 0.629142 0.687988
0.000000 0.756468 0.746421
0.000000 0.756468 0.746421
0.506108 0.761432 0.704503
0.771244 0.763899 0.676709
0.919483 0.766357 0.659353
