Pinyata/Assets/Materials/New Folder/Bloody/generated_lut.cube
TITLE "Exported LUT"
LUT_3D_SIZE 9
DOMAIN_MIN 0.0 0.0 0.0
DOMAIN_MAX 1.0 1.0 1.0
0.000000 0.167429 0.000000
0.000000 0.167429 0.000000
0.000000 0.167429 0.000000
0.000000 0.167429 0.000000
0.229437 0.132737 0.000000
0.347973 0.110395 0.000000
0.445250 0.110395 0.000000
0.533469 0.080560 0.000000
0.610149 0.080560 0.000000
0.000000 0.167429 0.000000
0.000000 0.167429 0.000000
0.000000 0.167429 0.000000
0.000000 0.167429 0.000000
0.229437 0.132737 0.000000
0.347973 0.110395 0.000000
0.445250 0.110395 0.000000
0.533469 0.080560 0.000000
0.610149 0.080560 0.000000
0.000000 0.167429 0.000000
0.000000 0.167429 0.000000
0.000000 0.167429 0.000000
0.000000 0.167429 0.000000
0.229437 0.132737 0.000000
0.347973 0.110395 0.000000
0.445250 0.110395 0.000000
0.533469 0.080560 0.000000
0.610149 0.080560 0.000000
0.000000 0.167429 0.000000
0.000000 0.167429 0.000000
0.000000 0.167429 0.000000
0.000000 0.167429 0.000000
0.229437 0.132737 0.000000
0.347973 0.110395 0.000000
0.445250 0.110395 0.000000
0.533469 0.080560 0.000000
0.610149 0.080560 0.000000
0.000000 0.341576 0.000000
0.000000 0.341576 0.000000
0.000000 0.341576 0.000000
0.000000 0.341576 0.000000
0.314409 0.347973 0.000000
0.472486 0.347973 0.000000
0.597081 0.347973 0.000000
0.704503 0.347973 0.000000
0.799821 0.347973 0.000000
0.000000 0.459110 0.000000
0.000000 0.459110 0.000000
0.000000 0.459110 0.000000
0.000000 0.459110 0.000000
0.354232 0.472486 0.000000
0.525826 0.481157 0.000000
0.659353 0.485422 0.000000
0.776095 0.489643 0.000000
0.866393 0.493821 0.000000
0.000000 0.555647 0.000000
0.000000 0.555647 0.000000
0.000000 0.555647 0.000000
0.000000 0.555647 0.000000
0.383716 0.583662 0.000000
0.566348 0.593761 0.000000
0.693545 0.600380 0.000000
0.795144 0.606913 0.000000
0.878987 0.610149 0.000000
0.000000 0.644460 0.000000
0.000000 0.644460 0.000000
0.000000 0.644460 0.000000
0.000000 0.644460 0.000000
0.410703 0.682376 0.000000
0.590417 0.685189 0.000000
0.712588 0.690773 0.000000
0.809079 0.693545 0.000000
0.887264 0.696304 0.000000
0.000000 0.731039 0.000000
0.000000 0.731039 0.000000
0.000000 0.731039 0.000000
0.000000 0.731039 0.000000
0.440513 0.756468 0.000000
0.613363 0.758955 0.000000
0.728438 0.761432 0.000000
0.820475 0.761432 0.000000
0.895449 0.761432 0.000000
0.000000 0.167429 0.000000
0.000000 0.167429 0.000000
0.000000 0.167429 0.000000
0.000000 0.167429 0.000000
0.229437 0.132737 0.000000
0.347973 0.110395 0.000000
0.445250 0.110395 0.000000
0.533469 0.080560 0.000000
0.610149 0.080560 0.000000
0.000000 0.167429 0.000000
0.000000 0.167429 0.000000
0.000000 0.167429 0.000000
0.000000 0.167429 0.000000
0.229437 0.132737 0.000000
0.347973 0.110395 0.000000
0.445250 0.110395 0.000000
0.533469 0.080560 0.000000
0.610149 0.080560 0.000000
0.000000 0.167429 0.000000
0.000000 0.167429 0.000000
0.000000 0.167429 0.000000
0.000000 0.167429 0.000000
0.229437 0.132737 0.000000
0.347973 0.110395 0.000000
0.445250 0.110395 0.000000
0.533469 0.080560 0.000000
0.610149 0.080560 0.000000
0.000000 0.167429 0.000000
0.000000 0.167429 0.000000
0.000000 0.167429 0.000000
0.000000 0.167429 0.000000
0.229437 0.132737 0.000000
0.347973 0.110395 0.000000
0.445250 0.110395 0.000000
0.533469 0.080560 0.000000
0.610149 0.080560 0.000000
0.000000 0.341576 0.000000
0.000000 0.341576 0.000000
0.000000 0.341576 0.000000
0.000000 0.341576 0.000000
0.314409 0.347973 0.000000
0.472486 0.347973 0.000000
0.597081 0.347973 0.000000
0.704503 0.347973 0.000000
0.799821 0.347973 0.000000
0.000000 0.459110 0.000000
0.000000 0.459110 0.000000
0.000000 0.459110 0.000000
0.000000 0.459110 0.000000
0.354232 0.472486 0.000000
0.525826 0.481157 0.000000
0.659353 0.485422 0.000000
0.776095 0.489643 0.000000
0.866393 0.493821 0.000000
0.000000 0.555647 0.000000
0.000000 0.555647 0.000000
0.000000 0.555647 0.000000
0.000000 0.555647 0.000000
0.383716 0.583662 0.000000
0.566348 0.593761 0.000000
0.693545 0.600380 0.000000
0.795144 0.606913 0.000000
0.878987 0.610149 0.000000
0.000000 0.644460 0.000000
0.000000 0.644460 0.000000
0.000000 0.644460 0.000000
0.000000 0.644460 0.000000
0.410703 0.682376 0.000000
0.590417 0.685189 0.000000
0.712588 0.690773 0.000000
0.809079 0.693545 0.000000
0.887264 0.696304 0.000000
0.000000 0.731039 0.000000
0.000000 0.731039 0.000000
0.000000 0.731039 0.000000
0.000000 0.731039 0.000000
0.440513 0.756468 0.000000
0.613363 0.758955 0.000000
0.728438 0.761432 0.000000
0.820475 0.761432 0.000000
0.895449 0.761432 0.000000
0.000000 0.167429 0.000000
0.000000 0.167429 0.000000
0.000000 0.167429 0.000000
0.000000 0.167429 0.000000
0.229437 0.132737 0.000000
0.347973 0.110395 0.000000
0.445250 0.110395 0.000000
0.533469 0.080560 0.000000
0.610149 0.080560 0.000000
0.000000 0.167429 0.000000
0.000000 0.167429 0.000000
0.000000 0.167429 0.000000
0.000000 0.167429 0.000000
0.229437 0.132737 0.000000
0.347973 0.110395 0.000000
0.445250 0.110395 0.000000
0.533469 0.080560 0.000000
0.610149 0.080560 0.000000
0.000000 0.167429 0.000000
0.000000 0.167429 0.000000
0.000000 0.167429 0.000000
0.000000 0.167429 0.000000
0.229437 0.132737 0.000000
0.347973 0.110395 0.000000
0.445250 0.110395 0.000000
0.533469 0.080560 0.000000
0.610149 0.080560 0.000000
0.000000 0.167429 0.000000
0.000000 0.167429 0.000000
0.000000 0.167429 0.000000
0.000000 0.167429 0.000000
0.229437 0.132737 0.000000
0.347973 0.110395 0.000000
0.445250 0.110395 0.000000
0.533469 0.080560 0.000000
0.610149 0.080560 0.000000
0.000000 0.341576 0.000000
0.000000 0.341576 0.000000
0.000000 0.341576 0.000000
0.000000 0.341576 0.000000
0.314409 0.347973 0.000000
0.472486 0.347973 0.000000
0.597081 0.347973 0.000000
0.704503 0.347973 0.000000
0.799821 0.347973 0.000000
0.000000 0.459110 0.000000
0.000000 0.459110 0.000000
0.000000 0.459110 0.000000
0.000000 0.459110 0.000000
0.354232 0.472486 0.000000
0.525826 0.481157 0.000000
0.659353 0.485422 0.000000
0.776095 0.489643 0.000000
0.866393 0.493821 0.000000
0.000000 0.555647 0.000000
0.000000 0.555647 0.000000
0.000000 0.555647 0.000000
0.000000 0.555647 0.000000
0.383716 0.583662 0.000000
0.566348 0.593761 0.000000
0.693545 0.600380 0.000000
0.795144 0.606913 0.000000
0.878987 0.610149 0.000000
0.000000 0.644460 0.000000
0.000000 0.644460 0.000000
0.000000 0.644460 0.000000
0.000000 0.644460 0.000000
0.410703 0.682376 0.000000
0.590417 0.685189 0.000000
0.712588 0.690773 0.000000
0.809079 0.693545 0.000000
0.887264 0.696304 0.000000
0.000000 0.731039 0.000000
0.000000 0.731039 0.000000
0.000000 0.731039 0.000000
0.000000 0.731039 0.000000
0.440513 0.756468 0.000000
0.613363 0.758955 0.000000
0.728438 0.761432 0.000000
0.820475 0.761432 0.000000
0.895449 0.761432 0.000000
0.000000 0.167429 0.000000
0.000000 0.167429 0.000000
0.000000 0.167429 0.000000
0.000000 0.167429 0.000000
0.229437 0.132737 0.000000
0.347973 0.110395 0.000000
0.445250 0.110395 0.000000
0.533469 0.080560 0.000000
0.610149 0.080560 0.000000
0.000000 0.167429 0.000000
0.000000 0.167429 0.000000
0.000000 0.167429 0.000000
0.000000 0.167429 0.000000
0.229437 0.132737 0.000000
0.347973 0.110395 0.000000
0.445250 0.110395 0.000000
0.533469 0.080560 0.000000
0.610149 0.080560 0.000000
0.000000 0.167429 0.000000
0.000000 0.167429 0.000000
0.000000 0.167429 0.000000
0.000000 0.167429 0.000000
0.229437 0.132737 0.000000
0.347973 0.110395 0.000000
0.445250 0.110395 0.000000
0.533469 0.080560 0.000000
0.610149 0.080560 0.000000
0.000000 0.167429 0.000000
0.000000 0.167429 0.000000
0.000000 0.167429 0.000000
0.000000 0.167429 0.000000
0.229437 0.132737 0.000000
0.347973 0.110395 0.000000
0.445250 0.110395 0.000000
0.533469 0.080560 0.000000
0.610149 0.080560 0.000000
0.000000 0.341576 0.000000
0.000000 0.341576 0.000000
0.000000 0.341576 0.000000
0.000000 0.341576 0.000000
0.314409 0.347973 0.000000
0.472486 0.347973 0.000000
0.597081 0.347973 0.000000
0.704503 0.347973 0.000000
0.799821 0.347973 0.000000
0.000000 0.459110 0.000000
0.000000 0.459110 0.000000
0.000000 0.459110 0.000000
0.000000 0.459110 0.000000
0.354232 0.472486 0.000000
0.525826 0.481157 0.000000
0.659353 0.485422 0.000000
0.776095 0.489643 0.000000
0.866393 0.493821 0.000000
0.000000 0.555647 0.000000
0.000000 0.555647 0.000000
0.000000 0.555647 0.000000
0.000000 0.555647 0.000000
0.383716 0.583662 0.000000
0.566348 0.593761 0.000000
0.693545 0.600380 0.000000
0.795144 0.606913 0.000000
0.878987 0.610149 0.000000
0.000000 0.644460 0.000000
0.000000 0.644460 0.000000
0.000000 0.644460 0.000000
0.000000 0.644460 0.000000
0.410703 0.682376 0.000000
0.590417 0.685189 0.000000
0.712588 0.690773 0.000000
0.809079 0.693545 0.000000
0.887264 0.696304 0.000000
0.000000 0.731039 0.000000
0.000000 0.731039 0.000000
0.000000 0.731039 0.000000
0.000000 0.731039 0.000000
0.440513 0.756468 0.000000
0.613363 0.758955 0.000000
0.728438 0.761432 0.000000
0.820475 0.761432 0.000000
0.895449 0.761432 0.000000
0.000000 0.151280 0.249261
0.000000 0.151280 0.249261
0.000000 0.151280 0.249261
0.000000 0.151280 0.249261
0.249261 0.110395 0.267353
0.378039 0.080560 0.275870
0.481157 0.080560 0.275870
0.569861 0.080560 0.284083
0.650467 0.080560 0.284083
0.000000 0.151280 0.249261
0.000000 0.151280 0.249261
0.000000 0.151280 0.249261
0.000000 0.151280 0.249261
0.249261 0.110395 0.267353
0.378039 0.080560 0.275870
0.481157 0.080560 0.275870
0.569861 0.080560 0.284083
0.650467 0.080560 0.284083
0.000000 0.151280 0.249261
0.000000 0.151280 0.249261
0.000000 0.151280 0.249261
0.000000 0.151280 0.249261
0.249261 0.110395 0.267353
0.378039 0.080560 0.275870
0.481157 0.080560 0.275870
0.569861 0.080560 0.284083
0.650467 0.080560 0.284083
0.000000 0.151280 0.249261
0.000000 0.151280 0.249261
0.000000 0.151280 0.249261
0.000000 0.151280 0.249261
0.249261 0.110395 0.267353
0.378039 0.080560 0.275870
0.481157 0.080560 0.275870
0.569861 0.080560 0.284083
0.650467 0.080560 0.284083
0.000000 0.341576 0.292020
0.000000 0.341576 0.292020
0.000000 0.341576 0.292020
0.000000 0.341576 0.292020
0.341576 0.347973 0.307164
0.502052 0.347973 0.314409
0.632242 0.347973 0.321460
0.743884 0.347973 0.321460
0.842715 0.347973 0.328330
0.000000 0.463620 0.307164
0.000000 0.463620 0.307164
0.000000 0.463620 0.307164
0.000000 0.463620 0.307164
0.378039 0.481157 0.328330
0.555647 0.485422 0.335031
0.693545 0.493821 0.335031
0.795144 0.502052 0.335031
0.881065 0.506108 0.335031
0.000000 0.566348 0.321460
0.000000 0.566348 0.321460
0.000000 0.566348 0.321460
0.000000 0.566348 0.321460
0.410703 0.593761 0.341576
0.590417 0.603657 0.341576
0.715259 0.610149 0.341576
0.811373 0.613363 0.341576
0.891368 0.619733 0.341576
0.000000 0.659353 0.335031
0.000000 0.659353 0.335031
0.000000 0.659353 0.335031
0.000000 0.659353 0.335031
0.440513 0.685189 0.347973
0.616558 0.690773 0.347973
0.733630 0.693545 0.347973
0.824981 0.699050 0.347973
0.899508 0.701783 0.347973
0.000000 0.746421 0.341576
0.000000 0.746421 0.341576
0.000000 0.746421 0.341576
0.000000 0.746421 0.341576
0.468079 0.758955 0.347973
0.635323 0.761432 0.347973
0.748948 0.761432 0.354232
0.836118 0.763899 0.354232
0.907561 0.763899 0.354232
0.000000 0.151280 0.328330
0.000000 0.151280 0.328330
0.000000 0.151280 0.328330
0.000000 0.151280 0.328330
0.258497 0.110395 0.360361
0.389294 0.080560 0.378039
0.493821 0.080560 0.383716
0.583662 0.080560 0.394777
0.668099 0.000000 0.400170
0.000000 0.151280 0.328330
0.000000 0.151280 0.328330
0.000000 0.151280 0.328330
0.000000 0.151280 0.328330
0.258497 0.110395 0.360361
0.389294 0.080560 0.378039
0.493821 0.080560 0.383716
0.583662 0.080560 0.394777
0.668099 0.000000 0.400170
0.000000 0.151280 0.328330
0.000000 0.151280 0.328330
0.000000 0.151280 0.328330
0.000000 0.151280 0.328330
0.258497 0.110395 0.360361
0.389294 0.080560 0.378039
0.493821 0.080560 0.383716
0.583662 0.080560 0.394777
0.668099 0.000000 0.400170
0.000000 0.151280 0.328330
0.000000 0.151280 0.328330
0.000000 0.151280 0.328330
0.000000 0.151280 0.328330
0.258497 0.110395 0.360361
0.389294 0.080560 0.378039
0.493821 0.080560 0.383716
0.583662 0.080560 0.394777
0.668099 0.000000 0.400170
0.000000 0.341576 0.405478
0.000000 0.341576 0.405478
0.000000 0.341576 0.405478
0.000000 0.341576 0.405478
0.347973 0.347973 0.435714
0.514104 0.347973 0.449927
0.644460 0.347973 0.459110
0.758955 0.347973 0.463620
0.860013 0.347973 0.472486
0.000000 0.468079 0.435714
0.000000 0.468079 0.435714
0.000000 0.468079 0.435714
0.000000 0.468079 0.435714
0.389294 0.481157 0.463620
0.569861 0.489643 0.476845
0.701783 0.497957 0.476845
0.802148 0.506108 0.472486
0.885203 0.514104 0.472486
0.000000 0.569861 0.454547
0.000000 0.569861 0.454547
0.000000 0.569861 0.454547
0.000000 0.569861 0.454547
0.420922 0.597081 0.481157
0.600380 0.606913 0.476845
0.723201 0.613363 0.472486
0.818211 0.616558 0.472486
0.897481 0.622888 0.468079
0.000000 0.665199 0.472486
0.000000 0.665199 0.472486
0.000000 0.665199 0.472486
0.000000 0.665199 0.472486
0.454547 0.687988 0.481157
0.626025 0.693545 0.476845
0.741336 0.696304 0.472486
0.831684 0.699050 0.468079
0.905556 0.701783 0.468079
0.000000 0.753971 0.489643
0.000000 0.753971 0.489643
0.000000 0.753971 0.489643
0.000000 0.753971 0.489643
0.481157 0.758955 0.476845
0.644460 0.761432 0.472486
0.756468 0.763899 0.468079
0.842715 0.763899 0.468079
0.911556 0.763899 0.463620
0.000000 0.132737 0.389294
0.000000 0.132737 0.389294
0.000000 0.132737 0.389294
0.000000 0.132737 0.389294
0.258497 0.110395 0.435714
0.394777 0.080560 0.454547
0.502052 0.080560 0.468079
0.593761 0.000000 0.476845
0.679549 0.000000 0.485422
0.000000 0.132737 0.389294
0.000000 0.132737 0.389294
0.000000 0.132737 0.389294
0.000000 0.132737 0.389294
0.258497 0.110395 0.435714
0.394777 0.080560 0.454547
0.502052 0.080560 0.468079
0.593761 0.000000 0.476845
0.679549 0.000000 0.485422
0.000000 0.132737 0.389294
0.000000 0.132737 0.389294
0.000000 0.132737 0.389294
0.000000 0.132737 0.389294
0.258497 0.110395 0.435714
0.394777 0.080560 0.454547
0.502052 0.080560 0.468079
0.593761 0.000000 0.476845
0.679549 0.000000 0.485422
0.000000 0.132737 0.389294
0.000000 0.132737 0.389294
0.000000 0.132737 0.389294
0.000000 0.132737 0.389294
0.258497 0.110395 0.435714
0.394777 0.080560 0.454547
0.502052 0.080560 0.468079
0.593761 0.000000 0.476845
0.679549 0.000000 0.485422
0.000000 0.347973 0.489643
0.000000 0.347973 0.489643
0.000000 0.347973 0.489643
0.000000 0.347973 0.489643
0.354232 0.347973 0.529664
0.525826 0.347973 0.548374
0.656407 0.347973 0.559241
0.771244 0.347973 0.569861
0.872717 0.347973 0.580248
0.000000 0.468079 0.525826
0.000000 0.468079 0.525826
0.000000 0.468079 0.525826
0.000000 0.468079 0.525826
0.394777 0.485422 0.569861
0.576811 0.489643 0.583662
0.707210 0.502052 0.576811
0.806776 0.510125 0.573349
0.889318 0.518046 0.566348
0.000000 0.573349 0.555647
0.000000 0.573349 0.555647
0.000000 0.573349 0.555647
0.000000 0.573349 0.555647
0.430851 0.600380 0.583662
0.606913 0.606913 0.573349
0.728438 0.613363 0.566348
0.822731 0.619733 0.562808
0.899508 0.626025 0.559241
0.000000 0.668099 0.580248
0.000000 0.668099 0.580248
0.000000 0.668099 0.580248
0.000000 0.668099 0.580248
0.463620 0.687988 0.576811
0.632242 0.693545 0.566348
0.746421 0.699050 0.559241
0.836118 0.701783 0.555647
0.907561 0.704503 0.548374
0.000000 0.753971 0.593761
0.000000 0.753971 0.593761
0.000000 0.753971 0.593761
0.000000 0.753971 0.593761
0.489643 0.758955 0.569861
0.653445 0.761432 0.559241
0.761432 0.763899 0.552025
0.847079 0.763899 0.548374
0.913545 0.766357 0.544693
0.000000 0.132737 0.445250
0.000000 0.132737 0.445250
0.000000 0.132737 0.445250
0.000000 0.132737 0.445250
0.267353 0.080560 0.497957
0.400170 0.080560 0.518046
0.510125 0.080560 0.533469
0.603657 0.000000 0.548374
0.687988 0.000000 0.559241
0.000000 0.132737 0.445250
0.000000 0.132737 0.445250
0.000000 0.132737 0.445250
0.000000 0.132737 0.445250
0.267353 0.080560 0.497957
0.400170 0.080560 0.518046
0.510125 0.080560 0.533469
0.603657 0.000000 0.548374
0.687988 0.000000 0.559241
0.000000 0.132737 0.445250
0.000000 0.132737 0.445250
0.000000 0.132737 0.445250
0.000000 0.132737 0.445250
0.267353 0.080560 0.497957
0.400170 0.080560 0.518046
0.510125 0.080560 0.533469
0.603657 0.000000 0.548374
0.687988 0.000000 0.559241
0.000000 0.132737 0.445250
0.000000 0.132737 0.445250
0.000000 0.132737 0.445250
0.000000 0.132737 0.445250
0.267353 0.080560 0.497957
0.400170 0.080560 0.518046
0.510125 0.080560 0.533469
0.603657 0.000000 0.548374
0.687988 0.000000 0.559241
0.000000 0.347973 0.559241
0.000000 0.347973 0.559241
0.000000 0.347973 0.559241
0.000000 0.347973 0.559241
0.360361 0.347973 0.610149
0.533469 0.347973 0.632242
0.665199 0.347973 0.647472
0.780909 0.347973 0.659353
0.876903 0.354232 0.662284
0.000000 0.468079 0.606913
0.000000 0.468079 0.606913
0.000000 0.468079 0.606913
0.000000 0.468079 0.606913
0.405478 0.485422 0.656407
0.583662 0.493821 0.668099
0.712588 0.506108 0.656407
0.811373 0.514104 0.650467
0.893411 0.518046 0.644460
0.000000 0.576811 0.638386
0.000000 0.576811 0.638386
0.000000 0.576811 0.638386
0.000000 0.576811 0.638386
0.440513 0.600380 0.665199
0.613363 0.610149 0.653445
0.733630 0.616558 0.641432
0.827222 0.622888 0.635323
0.903545 0.626025 0.629142
0.000000 0.670983 0.668099
0.000000 0.670983 0.668099
0.000000 0.670983 0.668099
0.000000 0.670983 0.668099
0.472486 0.690773 0.653445
0.638386 0.696304 0.641432
0.751465 0.699050 0.629142
0.838324 0.701783 0.622888
0.911556 0.704503 0.616558
0.000000 0.756468 0.676709
0.000000 0.756468 0.676709
0.000000 0.756468 0.676709
0.000000 0.756468 0.676709
0.497957 0.761432 0.641432
0.659353 0.761432 0.629142
0.766357 0.763899 0.619733
0.849251 0.763899 0.613363
0.917509 0.766357 0.606913
0.000000 0.132737 0.493821
0.000000 0.132737 0.493821
0.000000 0.132737 0.493821
0.000000 0.132737 0.493821
0.275870 0.080560 0.552025
0.410703 0.080560 0.576811
0.518046 0.080560 0.597081
0.610149 0.000000 0.610149
0.696304 0.000000 0.622888
0.000000 0.132737 0.493821
0.000000 0.132737 0.493821
0.000000 0.132737 0.493821
0.000000 0.132737 0.493821
0.275870 0.080560 0.552025
0.410703 0.080560 0.576811
0.518046 0.080560 0.597081
0.610149 0.000000 0.610149
0.696304 0.000000 0.622888
0.000000 0.132737 0.493821
0.000000 0.132737 0.493821
0.000000 0.132737 0.493821
0.000000 0.132737 0.493821
0.275870 0.080560 0.552025
0.410703 0.080560 0.576811
0.518046 0.080560 0.597081
0.610149 0.000000 0.610149
0.696304 0.000000 0.622888
0.000000 0.132737 0.493821
0.000000 0.132737 0.493821
0.000000 0.132737 0.493821
0.000000 0.132737 0.493821
0.275870 0.080560 0.552025
0.410703 0.080560 0.576811
0.518046 0.080560 0.597081
0.610149 0.000000 0.610149
0.696304 0.000000 0.622888
0.000000 0.347973 0.622888
0.000000 0.347973 0.622888
0.000000 0.347973 0.622888
0.000000 0.347973 0.622888
0.366368 0.347973 0.682376
0.537242 0.347973 0.704503
0.673853 0.347973 0.723201
0.788065 0.347973 0.736210
0.881065 0.354232 0.733630
0.000000 0.472486 0.673853
0.000000 0.472486 0.673853
0.000000 0.472486 0.673853
0.000000 0.472486 0.673853
0.410703 0.485422 0.733630
0.590417 0.497957 0.738778
0.715259 0.506108 0.725825
0.813660 0.514104 0.715259
0.895449 0.521953 0.707210
0.000000 0.576811 0.712588
0.000000 0.576811 0.712588
0.000000 0.576811 0.712588
0.000000 0.576811 0.712588
0.445250 0.603657 0.733630
0.619733 0.613363 0.717918
0.738778 0.619733 0.707210
0.829457 0.622888 0.696304
0.905556 0.629142 0.687988
0.000000 0.673853 0.743884
0.000000 0.673853 0.743884
0.000000 0.673853 0.743884
0.000000 0.673853 0.743884
0.476845 0.690773 0.717918
0.644460 0.696304 0.701783
0.756468 0.699050 0.690773
0.842715 0.704503 0.679549
0.913545 0.707210 0.673853
0.000000 0.756468 0.746421
0.000000 0.756468 0.746421
0.000000 0.756468 0.746421
0.000000 0.756468 0.746421
0.506108 0.761432 0.704503
0.662284 0.763899 0.687988
0.771244 0.763899 0.676709
0.851417 0.766357 0.668099
0.919483 0.766357 0.659353
