Pinyata/Assets/generated_lut-2.cube
TITLE "Exported LUT"
LUT_3D_SIZE 17
DOMAIN_MIN 0.0 0.0 0.0
DOMAIN_MAX 1.0 1.0 1.0
0.000000 0.167429 0.000000
0.000000 0.167429 0.000000
0.000000 0.167429 0.000000
0.000000 0.167429 0.000000
0.000000 0.167429 0.000000
0.000000 0.167429 0.000000
0.110395 0.151280 0.000000
0.218708 0.132737 0.000000
0.292020 0.110395 0.000000
0.354232 0.110395 0.000000
0.405478 0.110395 0.000000
0.459110 0.080560 0.000000
0.506108 0.080560 0.000000
0.552025 0.080560 0.000000
0.597081 0.080560 0.000000
0.638386 0.080560 0.000000
0.676709 0.080560 0.000000
0.000000 0.167429 0.000000
0.000000 0.167429 0.000000
0.000000 0.167429 0.000000
0.000000 0.167429 0.000000
0.000000 0.167429 0.000000
0.000000 0.167429 0.000000
0.110395 0.151280 0.000000
0.218708 0.132737 0.000000
0.292020 0.110395 0.000000
0.354232 0.110395 0.000000
0.405478 0.110395 0.000000
0.459110 0.080560 0.000000
0.506108 0.080560 0.000000
0.552025 0.080560 0.000000
0.597081 0.080560 0.000000
0.638386 0.080560 0.000000
0.676709 0.080560 0.000000
0.000000 0.167429 0.000000
0.000000 0.167429 0.000000
0.000000 0.167429 0.000000
0.000000 0.167429 0.000000
0.000000 0.167429 0.000000
0.000000 0.167429 0.000000
0.110395 0.151280 0.000000
0.218708 0.132737 0.000000
0.292020 0.110395 0.000000
0.354232 0.110395 0.000000
0.405478 0.110395 0.000000
0.459110 0.080560 0.000000
0.506108 0.080560 0.000000
0.552025 0.080560 0.000000
0.597081 0.080560 0.000000
0.638386 0.080560 0.000000
0.676709 0.080560 0.000000
0.000000 0.167429 0.000000
0.000000 0.167429 0.000000
0.000000 0.167429 0.000000
0.000000 0.167429 0.000000
0.000000 0.167429 0.000000
0.000000 0.167429 0.000000
0.110395 0.151280 0.000000
0.218708 0.132737 0.000000
0.292020 0.110395 0.000000
0.354232 0.110395 0.000000
0.405478 0.110395 0.000000
0.459110 0.080560 0.000000
0.506108 0.080560 0.000000
0.552025 0.080560 0.000000
0.597081 0.080560 0.000000
0.638386 0.080560 0.000000
0.676709 0.080560 0.000000
0.000000 0.167429 0.000000
0.000000 0.167429 0.000000
0.000000 0.167429 0.000000
0.000000 0.167429 0.000000
0.000000 0.167429 0.000000
0.000000 0.167429 0.000000
0.110395 0.151280 0.000000
0.218708 0.132737 0.000000
0.292020 0.110395 0.000000
0.354232 0.110395 0.000000
0.405478 0.110395 0.000000
0.459110 0.080560 0.000000
0.506108 0.080560 0.000000
0.552025 0.080560 0.000000
0.597081 0.080560 0.000000
0.638386 0.080560 0.000000
0.676709 0.080560 0.000000
0.000000 0.167429 0.000000
0.000000 0.167429 0.000000
0.000000 0.167429 0.000000
0.000000 0.167429 0.000000
0.000000 0.167429 0.000000
0.000000 0.167429 0.000000
0.110395 0.151280 0.000000
0.218708 0.132737 0.000000
0.292020 0.110395 0.000000
0.354232 0.110395 0.000000
0.405478 0.110395 0.000000
0.459110 0.080560 0.000000
0.506108 0.080560 0.000000
0.552025 0.080560 0.000000
0.597081 0.080560 0.000000
0.638386 0.080560 0.000000
0.676709 0.080560 0.000000
0.000000 0.249261 0.000000
0.000000 0.249261 0.000000
0.000000 0.249261 0.000000
0.000000 0.249261 0.000000
0.000000 0.249261 0.000000
0.000000 0.249261 0.000000
0.132737 0.239595 0.000000
0.258497 0.229437 0.000000
0.347973 0.229437 0.000000
0.415850 0.218708 0.000000
0.481157 0.218708 0.000000
0.540983 0.218708 0.000000
0.597081 0.218708 0.000000
0.647472 0.207307 0.000000
0.696304 0.207307 0.000000
0.743884 0.207307 0.000000
0.788065 0.207307 0.000000
0.000000 0.328330 0.000000
0.000000 0.328330 0.000000
0.000000 0.328330 0.000000
0.000000 0.328330 0.000000
0.000000 0.328330 0.000000
0.000000 0.328330 0.000000
0.151280 0.328330 0.000000
0.292020 0.328330 0.000000
0.389294 0.328330 0.000000
0.468079 0.328330 0.000000
0.537242 0.328330 0.000000
0.603657 0.328330 0.000000
0.662284 0.328330 0.000000
0.717918 0.328330 0.000000
0.771244 0.328330 0.000000
0.822731 0.328330 0.000000
0.870615 0.328330 0.000000
0.000000 0.400170 0.000000
0.000000 0.400170 0.000000
0.000000 0.400170 0.000000
0.000000 0.400170 0.000000
0.000000 0.400170 0.000000
0.000000 0.400170 0.000000
0.167429 0.405478 0.000000
0.314409 0.405478 0.000000
0.415850 0.410703 0.000000
0.502052 0.410703 0.000000
0.576811 0.410703 0.000000
0.644460 0.415850 0.000000
0.707210 0.415850 0.000000
0.763899 0.415850 0.000000
0.820475 0.415850 0.000000
0.874813 0.420922 0.000000
0.925374 0.420922 0.000000
0.000000 0.459110 0.000000
0.000000 0.459110 0.000000
0.000000 0.459110 0.000000
0.000000 0.459110 0.000000
0.000000 0.459110 0.000000
0.000000 0.459110 0.000000
0.181896 0.468079 0.000000
0.335031 0.476845 0.000000
0.440513 0.481157 0.000000
0.529664 0.481157 0.000000
0.606913 0.485422 0.000000
0.676709 0.489643 0.000000
0.741336 0.489643 0.000000
0.802148 0.493821 0.000000
0.851417 0.497957 0.000000
0.895449 0.502052 0.000000
0.937025 0.502052 0.000000
0.000000 0.514104 0.000000
0.000000 0.514104 0.000000
0.000000 0.514104 0.000000
0.000000 0.514104 0.000000
0.000000 0.514104 0.000000
0.000000 0.514104 0.000000
0.181896 0.525826 0.000000
0.347973 0.537242 0.000000
0.459110 0.540983 0.000000
0.552025 0.548374 0.000000
0.632242 0.552025 0.000000
0.699050 0.555647 0.000000
0.758955 0.559241 0.000000
0.811373 0.562808 0.000000
0.857873 0.566348 0.000000
0.901529 0.569861 0.000000
0.940870 0.569861 0.000000
0.000000 0.566348 0.000000
0.000000 0.566348 0.000000
0.000000 0.566348 0.000000
0.000000 0.566348 0.000000
0.000000 0.566348 0.000000
0.000000 0.566348 0.000000
0.195098 0.583662 0.000000
0.366368 0.593761 0.000000
0.476845 0.603657 0.000000
0.569861 0.606913 0.000000
0.647472 0.610149 0.000000
0.712588 0.613363 0.000000
0.768805 0.616558 0.000000
0.818211 0.619733 0.000000
0.864273 0.622888 0.000000
0.905556 0.626025 0.000000
0.944696 0.626025 0.000000
0.000000 0.616558 0.000000
0.000000 0.616558 0.000000
0.000000 0.616558 0.000000
0.000000 0.616558 0.000000
0.000000 0.616558 0.000000
0.000000 0.616558 0.000000
0.207307 0.635323 0.000000
0.378039 0.650467 0.000000
0.493821 0.656407 0.000000
0.583662 0.659353 0.000000
0.659353 0.662284 0.000000
0.720565 0.665199 0.000000
0.776095 0.668099 0.000000
0.824981 0.668099 0.000000
0.870615 0.670983 0.000000
0.911556 0.673853 0.000000
0.948504 0.673853 0.000000
0.000000 0.668099 0.000000
0.000000 0.668099 0.000000
0.000000 0.668099 0.000000
0.000000 0.668099 0.000000
0.000000 0.668099 0.000000
0.000000 0.668099 0.000000
0.218708 0.687988 0.000000
0.394777 0.701783 0.000000
0.510125 0.704503 0.000000
0.597081 0.704503 0.000000
0.670983 0.707210 0.000000
0.731039 0.709905 0.000000
0.785689 0.709905 0.000000
0.831684 0.712588 0.000000
0.874813 0.712588 0.000000
0.913545 0.715259 0.000000
0.950401 0.715259 0.000000
0.000000 0.715259 0.000000
0.000000 0.715259 0.000000
0.000000 0.715259 0.000000
0.000000 0.715259 0.000000
0.000000 0.715259 0.000000
0.000000 0.715259 0.000000
0.218708 0.738778 0.000000
0.410703 0.741336 0.000000
0.521953 0.743884 0.000000
0.610149 0.746421 0.000000
0.679549 0.746421 0.000000
0.738778 0.746421 0.000000
0.792793 0.748948 0.000000
0.838324 0.748948 0.000000
0.878987 0.748948 0.000000
0.917509 0.751465 0.000000
0.952293 0.751465 0.000000
0.000000 0.761432 0.000000
0.000000 0.761432 0.000000
0.000000 0.761432 0.000000
0.000000 0.761432 0.000000
0.000000 0.761432 0.000000
0.000000 0.761432 0.000000
0.239595 0.778507 0.000000
0.425921 0.780909 0.000000
0.537242 0.780909 0.000000
0.619733 0.780909 0.000000
0.687988 0.780909 0.000000
0.746421 0.780909 0.000000
0.797487 0.783303 0.000000
0.842715 0.783303 0.000000
0.883137 0.783303 0.000000
0.921451 0.783303 0.000000
0.954181 0.783303 0.000000
0.000000 0.806776 0.000000
0.000000 0.806776 0.000000
0.000000 0.806776 0.000000
0.000000 0.806776 0.000000
0.000000 0.806776 0.000000
0.000000 0.806776 0.000000
0.258497 0.813660 0.000000
0.440513 0.813660 0.000000
0.548374 0.813660 0.000000
0.632242 0.813660 0.000000
0.699050 0.813660 0.000000
0.753971 0.813660 0.000000
0.804466 0.811373 0.000000
0.849251 0.811373 0.000000
0.887264 0.811373 0.000000
0.923415 0.811373 0.080560
0.956065 0.811373 0.080560
0.000000 0.167429 0.000000
0.000000 0.167429 0.000000
0.000000 0.167429 0.000000
0.000000 0.167429 0.000000
0.000000 0.167429 0.000000
0.000000 0.167429 0.000000
0.110395 0.151280 0.000000
0.218708 0.132737 0.000000
0.292020 0.110395 0.000000
0.354232 0.110395 0.000000
0.405478 0.110395 0.000000
0.459110 0.080560 0.000000
0.506108 0.080560 0.000000
0.552025 0.080560 0.000000
0.597081 0.080560 0.000000
0.638386 0.080560 0.000000
0.676709 0.080560 0.000000
0.000000 0.167429 0.000000
0.000000 0.167429 0.000000
0.000000 0.167429 0.000000
0.000000 0.167429 0.000000
0.000000 0.167429 0.000000
0.000000 0.167429 0.000000
0.110395 0.151280 0.000000
0.218708 0.132737 0.000000
0.292020 0.110395 0.000000
0.354232 0.110395 0.000000
0.405478 0.110395 0.000000
0.459110 0.080560 0.000000
0.506108 0.080560 0.000000
0.552025 0.080560 0.000000
0.597081 0.080560 0.000000
0.638386 0.080560 0.000000
0.676709 0.080560 0.000000
0.000000 0.167429 0.000000
0.000000 0.167429 0.000000
0.000000 0.167429 0.000000
0.000000 0.167429 0.000000
0.000000 0.167429 0.000000
0.000000 0.167429 0.000000
0.110395 0.151280 0.000000
0.218708 0.132737 0.000000
0.292020 0.110395 0.000000
0.354232 0.110395 0.000000
0.405478 0.110395 0.000000
0.459110 0.080560 0.000000
0.506108 0.080560 0.000000
0.552025 0.080560 0.000000
0.597081 0.080560 0.000000
0.638386 0.080560 0.000000
0.676709 0.080560 0.000000
0.000000 0.167429 0.000000
0.000000 0.167429 0.000000
0.000000 0.167429 0.000000
0.000000 0.167429 0.000000
0.000000 0.167429 0.000000
0.000000 0.167429 0.000000
0.110395 0.151280 0.000000
0.218708 0.132737 0.000000
0.292020 0.110395 0.000000
0.354232 0.110395 0.000000
0.405478 0.110395 0.000000
0.459110 0.080560 0.000000
0.506108 0.080560 0.000000
0.552025 0.080560 0.000000
0.597081 0.080560 0.000000
0.638386 0.080560 0.000000
0.676709 0.080560 0.000000
0.000000 0.167429 0.000000
0.000000 0.167429 0.000000
0.000000 0.167429 0.000000
0.000000 0.167429 0.000000
0.000000 0.167429 0.000000
0.000000 0.167429 0.000000
0.110395 0.151280 0.000000
0.218708 0.132737 0.000000
0.292020 0.110395 0.000000
0.354232 0.110395 0.000000
0.405478 0.110395 0.000000
0.459110 0.080560 0.000000
0.506108 0.080560 0.000000
0.552025 0.080560 0.000000
0.597081 0.080560 0.000000
0.638386 0.080560 0.000000
0.676709 0.080560 0.000000
0.000000 0.167429 0.000000
0.000000 0.167429 0.000000
0.000000 0.167429 0.000000
0.000000 0.167429 0.000000
0.000000 0.167429 0.000000
0.000000 0.167429 0.000000
0.110395 0.151280 0.000000
0.218708 0.132737 0.000000
0.292020 0.110395 0.000000
0.354232 0.110395 0.000000
0.405478 0.110395 0.000000
0.459110 0.080560 0.000000
0.506108 0.080560 0.000000
0.552025 0.080560 0.000000
0.597081 0.080560 0.000000
0.638386 0.080560 0.000000
0.676709 0.080560 0.000000
0.000000 0.249261 0.000000
0.000000 0.249261 0.000000
0.000000 0.249261 0.000000
0.000000 0.249261 0.000000
0.000000 0.249261 0.000000
0.000000 0.249261 0.000000
0.132737 0.239595 0.000000
0.258497 0.229437 0.000000
0.347973 0.229437 0.000000
0.415850 0.218708 0.000000
0.481157 0.218708 0.000000
0.540983 0.218708 0.000000
0.597081 0.218708 0.000000
0.647472 0.207307 0.000000
0.696304 0.207307 0.000000
0.743884 0.207307 0.000000
0.788065 0.207307 0.000000
0.000000 0.328330 0.000000
0.000000 0.328330 0.000000
0.000000 0.328330 0.000000
0.000000 0.328330 0.000000
0.000000 0.328330 0.000000
0.000000 0.328330 0.000000
0.151280 0.328330 0.000000
0.292020 0.328330 0.000000
0.389294 0.328330 0.000000
0.468079 0.328330 0.000000
0.537242 0.328330 0.000000
0.603657 0.328330 0.000000
0.662284 0.328330 0.000000
0.717918 0.328330 0.000000
0.771244 0.328330 0.000000
0.822731 0.328330 0.000000
0.870615 0.328330 0.000000
0.000000 0.400170 0.000000
0.000000 0.400170 0.000000
0.000000 0.400170 0.000000
0.000000 0.400170 0.000000
0.000000 0.400170 0.000000
0.000000 0.400170 0.000000
0.167429 0.405478 0.000000
0.314409 0.405478 0.000000
0.415850 0.410703 0.000000
0.502052 0.410703 0.000000
0.576811 0.410703 0.000000
0.644460 0.415850 0.000000
0.707210 0.415850 0.000000
0.763899 0.415850 0.000000
0.820475 0.415850 0.000000
0.874813 0.420922 0.000000
0.925374 0.420922 0.000000
0.000000 0.459110 0.000000
0.000000 0.459110 0.000000
0.000000 0.459110 0.000000
0.000000 0.459110 0.000000
0.000000 0.459110 0.000000
0.000000 0.459110 0.000000
0.181896 0.468079 0.000000
0.335031 0.476845 0.000000
0.440513 0.481157 0.000000
0.529664 0.481157 0.000000
0.606913 0.485422 0.000000
0.676709 0.489643 0.000000
0.741336 0.489643 0.000000
0.802148 0.493821 0.000000
0.851417 0.497957 0.000000
0.895449 0.502052 0.000000
0.937025 0.502052 0.000000
0.000000 0.514104 0.000000
0.000000 0.514104 0.000000
0.000000 0.514104 0.000000
0.000000 0.514104 0.000000
0.000000 0.514104 0.000000
0.000000 0.514104 0.000000
0.181896 0.525826 0.000000
0.347973 0.537242 0.000000
0.459110 0.540983 0.000000
0.552025 0.548374 0.000000
0.632242 0.552025 0.000000
0.699050 0.555647 0.000000
0.758955 0.559241 0.000000
0.811373 0.562808 0.000000
0.857873 0.566348 0.000000
0.901529 0.569861 0.000000
0.940870 0.569861 0.000000
0.000000 0.566348 0.000000
0.000000 0.566348 0.000000
0.000000 0.566348 0.000000
0.000000 0.566348 0.000000
0.000000 0.566348 0.000000
0.000000 0.566348 0.000000
0.195098 0.583662 0.000000
0.366368 0.593761 0.000000
0.476845 0.603657 0.000000
0.569861 0.606913 0.000000
0.647472 0.610149 0.000000
0.712588 0.613363 0.000000
0.768805 0.616558 0.000000
0.818211 0.619733 0.000000
0.864273 0.622888 0.000000
0.905556 0.626025 0.000000
0.944696 0.626025 0.000000
0.000000 0.616558 0.000000
0.000000 0.616558 0.000000
0.000000 0.616558 0.000000
0.000000 0.616558 0.000000
0.000000 0.616558 0.000000
0.000000 0.616558 0.000000
0.207307 0.635323 0.000000
0.378039 0.650467 0.000000
0.493821 0.656407 0.000000
0.583662 0.659353 0.000000
0.659353 0.662284 0.000000
0.720565 0.665199 0.000000
0.776095 0.668099 0.000000
0.824981 0.668099 0.000000
0.870615 0.670983 0.000000
0.911556 0.673853 0.000000
0.948504 0.673853 0.000000
0.000000 0.668099 0.000000
0.000000 0.668099 0.000000
0.000000 0.668099 0.000000
0.000000 0.668099 0.000000
0.000000 0.668099 0.000000
0.000000 0.668099 0.000000
0.218708 0.687988 0.000000
0.394777 0.701783 0.000000
0.510125 0.704503 0.000000
0.597081 0.704503 0.000000
0.670983 0.707210 0.000000
0.731039 0.709905 0.000000
0.785689 0.709905 0.000000
0.831684 0.712588 0.000000
0.874813 0.712588 0.000000
0.913545 0.715259 0.000000
0.950401 0.715259 0.000000
0.000000 0.715259 0.000000
0.000000 0.715259 0.000000
0.000000 0.715259 0.000000
0.000000 0.715259 0.000000
0.000000 0.715259 0.000000
0.000000 0.715259 0.000000
0.218708 0.738778 0.000000
0.410703 0.741336 0.000000
0.521953 0.743884 0.000000
0.610149 0.746421 0.000000
0.679549 0.746421 0.000000
0.738778 0.746421 0.000000
0.792793 0.748948 0.000000
0.838324 0.748948 0.000000
0.878987 0.748948 0.000000
0.917509 0.751465 0.000000
0.952293 0.751465 0.000000
0.000000 0.761432 0.000000
0.000000 0.761432 0.000000
0.000000 0.761432 0.000000
0.000000 0.761432 0.000000
0.000000 0.761432 0.000000
0.000000 0.761432 0.000000
0.239595 0.778507 0.000000
0.425921 0.780909 0.000000
0.537242 0.780909 0.000000
0.619733 0.780909 0.000000
0.687988 0.780909 0.000000
0.746421 0.780909 0.000000
0.797487 0.783303 0.000000
0.842715 0.783303 0.000000
0.883137 0.783303 0.000000
0.921451 0.783303 0.000000
0.954181 0.783303 0.000000
0.000000 0.806776 0.000000
0.000000 0.806776 0.000000
0.000000 0.806776 0.000000
0.000000 0.806776 0.000000
0.000000 0.806776 0.000000
0.000000 0.806776 0.000000
0.258497 0.813660 0.000000
0.440513 0.813660 0.000000
0.548374 0.813660 0.000000
0.632242 0.813660 0.000000
0.699050 0.813660 0.000000
0.753971 0.813660 0.000000
0.804466 0.811373 0.000000
0.849251 0.811373 0.000000
0.887264 0.811373 0.000000
0.923415 0.811373 0.080560
0.956065 0.811373 0.080560
0.000000 0.167429 0.000000
0.000000 0.167429 0.000000
0.000000 0.167429 0.000000
0.000000 0.167429 0.000000
0.000000 0.167429 0.000000
0.000000 0.167429 0.000000
0.110395 0.151280 0.000000
0.218708 0.132737 0.000000
0.292020 0.110395 0.000000
0.354232 0.110395 0.000000
0.405478 0.110395 0.000000
0.459110 0.080560 0.000000
0.506108 0.080560 0.000000
0.552025 0.080560 0.000000
0.597081 0.080560 0.000000
0.638386 0.080560 0.000000
0.676709 0.080560 0.000000
0.000000 0.167429 0.000000
0.000000 0.167429 0.000000
0.000000 0.167429 0.000000
0.000000 0.167429 0.000000
0.000000 0.167429 0.000000
0.000000 0.167429 0.000000
0.110395 0.151280 0.000000
0.218708 0.132737 0.000000
0.292020 0.110395 0.000000
0.354232 0.110395 0.000000
0.405478 0.110395 0.000000
0.459110 0.080560 0.000000
0.506108 0.080560 0.000000
0.552025 0.080560 0.000000
0.597081 0.080560 0.000000
0.638386 0.080560 0.000000
0.676709 0.080560 0.000000
0.000000 0.167429 0.000000
0.000000 0.167429 0.000000
0.000000 0.167429 0.000000
0.000000 0.167429 0.000000
0.000000 0.167429 0.000000
0.000000 0.167429 0.000000
0.110395 0.151280 0.000000
0.218708 0.132737 0.000000
0.292020 0.110395 0.000000
0.354232 0.110395 0.000000
0.405478 0.110395 0.000000
0.459110 0.080560 0.000000
0.506108 0.080560 0.000000
0.552025 0.080560 0.000000
0.597081 0.080560 0.000000
0.638386 0.080560 0.000000
0.676709 0.080560 0.000000
0.000000 0.167429 0.000000
0.000000 0.167429 0.000000
0.000000 0.167429 0.000000
0.000000 0.167429 0.000000
0.000000 0.167429 0.000000
0.000000 0.167429 0.000000
0.110395 0.151280 0.000000
0.218708 0.132737 0.000000
0.292020 0.110395 0.000000
0.354232 0.110395 0.000000
0.405478 0.110395 0.000000
0.459110 0.080560 0.000000
0.506108 0.080560 0.000000
0.552025 0.080560 0.000000
0.597081 0.080560 0.000000
0.638386 0.080560 0.000000
0.676709 0.080560 0.000000
0.000000 0.167429 0.000000
0.000000 0.167429 0.000000
0.000000 0.167429 0.000000
0.000000 0.167429 0.000000
0.000000 0.167429 0.000000
0.000000 0.167429 0.000000
0.110395 0.151280 0.000000
0.218708 0.132737 0.000000
0.292020 0.110395 0.000000
0.354232 0.110395 0.000000
0.405478 0.110395 0.000000
0.459110 0.080560 0.000000
0.506108 0.080560 0.000000
0.552025 0.080560 0.000000
0.597081 0.080560 0.000000
0.638386 0.080560 0.000000
0.676709 0.080560 0.000000
0.000000 0.167429 0.000000
0.000000 0.167429 0.000000
0.000000 0.167429 0.000000
0.000000 0.167429 0.000000
0.000000 0.167429 0.000000
0.000000 0.167429 0.000000
0.110395 0.151280 0.000000
0.218708 0.132737 0.000000
0.292020 0.110395 0.000000
0.354232 0.110395 0.000000
0.405478 0.110395 0.000000
0.459110 0.080560 0.000000
0.506108 0.080560 0.000000
0.552025 0.080560 0.000000
0.597081 0.080560 0.000000
0.638386 0.080560 0.000000
0.676709 0.080560 0.000000
0.000000 0.249261 0.000000
0.000000 0.249261 0.000000
0.000000 0.249261 0.000000
0.000000 0.249261 0.000000
0.000000 0.249261 0.000000
0.000000 0.249261 0.000000
0.132737 0.239595 0.000000
0.258497 0.229437 0.000000
0.347973 0.229437 0.000000
0.415850 0.218708 0.000000
0.481157 0.218708 0.000000
0.540983 0.218708 0.000000
0.597081 0.218708 0.000000
0.647472 0.207307 0.000000
0.696304 0.207307 0.000000
0.743884 0.207307 0.000000
0.788065 0.207307 0.000000
0.000000 0.328330 0.000000
0.000000 0.328330 0.000000
0.000000 0.328330 0.000000
0.000000 0.328330 0.000000
0.000000 0.328330 0.000000
0.000000 0.328330 0.000000
0.151280 0.328330 0.000000
0.292020 0.328330 0.000000
0.389294 0.328330 0.000000
0.468079 0.328330 0.000000
0.537242 0.328330 0.000000
0.603657 0.328330 0.000000
0.662284 0.328330 0.000000
0.717918 0.328330 0.000000
0.771244 0.328330 0.000000
0.822731 0.328330 0.000000
0.870615 0.328330 0.000000
0.000000 0.400170 0.000000
0.000000 0.400170 0.000000
0.000000 0.400170 0.000000
0.000000 0.400170 0.000000
0.000000 0.400170 0.000000
0.000000 0.400170 0.000000
0.167429 0.405478 0.000000
0.314409 0.405478 0.000000
0.415850 0.410703 0.000000
0.502052 0.410703 0.000000
0.576811 0.410703 0.000000
0.644460 0.415850 0.000000
0.707210 0.415850 0.000000
0.763899 0.415850 0.000000
0.820475 0.415850 0.000000
0.874813 0.420922 0.000000
0.925374 0.420922 0.000000
0.000000 0.459110 0.000000
0.000000 0.459110 0.000000
0.000000 0.459110 0.000000
0.000000 0.459110 0.000000
0.000000 0.459110 0.000000
0.000000 0.459110 0.000000
0.181896 0.468079 0.000000
0.335031 0.476845 0.000000
0.440513 0.481157 0.000000
0.529664 0.481157 0.000000
0.606913 0.485422 0.000000
0.676709 0.489643 0.000000
0.741336 0.489643 0.000000
0.802148 0.493821 0.000000
0.851417 0.497957 0.000000
0.895449 0.502052 0.000000
0.937025 0.502052 0.000000
0.000000 0.514104 0.000000
0.000000 0.514104 0.000000
0.000000 0.514104 0.000000
0.000000 0.514104 0.000000
0.000000 0.514104 0.000000
0.000000 0.514104 0.000000
0.181896 0.525826 0.000000
0.347973 0.537242 0.000000
0.459110 0.540983 0.000000
0.552025 0.548374 0.000000
0.632242 0.552025 0.000000
0.699050 0.555647 0.000000
0.758955 0.559241 0.000000
0.811373 0.562808 0.000000
0.857873 0.566348 0.000000
0.901529 0.569861 0.000000
0.940870 0.569861 0.000000
0.000000 0.566348 0.000000
0.000000 0.566348 0.000000
0.000000 0.566348 0.000000
0.000000 0.566348 0.000000
0.000000 0.566348 0.000000
0.000000 0.566348 0.000000
0.195098 0.583662 0.000000
0.366368 0.593761 0.000000
0.476845 0.603657 0.000000
0.569861 0.606913 0.000000
0.647472 0.610149 0.000000
0.712588 0.613363 0.000000
0.768805 0.616558 0.000000
0.818211 0.619733 0.000000
0.864273 0.622888 0.000000
0.905556 0.626025 0.000000
0.944696 0.626025 0.000000
0.000000 0.616558 0.000000
0.000000 0.616558 0.000000
0.000000 0.616558 0.000000
0.000000 0.616558 0.000000
0.000000 0.616558 0.000000
0.000000 0.616558 0.000000
0.207307 0.635323 0.000000
0.378039 0.650467 0.000000
0.493821 0.656407 0.000000
0.583662 0.659353 0.000000
0.659353 0.662284 0.000000
0.720565 0.665199 0.000000
0.776095 0.668099 0.000000
0.824981 0.668099 0.000000
0.870615 0.670983 0.000000
0.911556 0.673853 0.000000
0.948504 0.673853 0.000000
0.000000 0.668099 0.000000
0.000000 0.668099 0.000000
0.000000 0.668099 0.000000
0.000000 0.668099 0.000000
0.000000 0.668099 0.000000
0.000000 0.668099 0.000000
0.218708 0.687988 0.000000
0.394777 0.701783 0.000000
0.510125 0.704503 0.000000
0.597081 0.704503 0.000000
0.670983 0.707210 0.000000
0.731039 0.709905 0.000000
0.785689 0.709905 0.000000
0.831684 0.712588 0.000000
0.874813 0.712588 0.000000
0.913545 0.715259 0.000000
0.950401 0.715259 0.000000
0.000000 0.715259 0.000000
0.000000 0.715259 0.000000
0.000000 0.715259 0.000000
0.000000 0.715259 0.000000
0.000000 0.715259 0.000000
0.000000 0.715259 0.000000
0.218708 0.738778 0.000000
0.410703 0.741336 0.000000
0.521953 0.743884 0.000000
0.610149 0.746421 0.000000
0.679549 0.746421 0.000000
0.738778 0.746421 0.000000
0.792793 0.748948 0.000000
0.838324 0.748948 0.000000
0.878987 0.748948 0.000000
0.917509 0.751465 0.000000
0.952293 0.751465 0.000000
0.000000 0.761432 0.000000
0.000000 0.761432 0.000000
0.000000 0.761432 0.000000
0.000000 0.761432 0.000000
0.000000 0.761432 0.000000
0.000000 0.761432 0.000000
0.239595 0.778507 0.000000
0.425921 0.780909 0.000000
0.537242 0.780909 0.000000
0.619733 0.780909 0.000000
0.687988 0.780909 0.000000
0.746421 0.780909 0.000000
0.797487 0.783303 0.000000
0.842715 0.783303 0.000000
0.883137 0.783303 0.000000
0.921451 0.783303 0.000000
0.954181 0.783303 0.000000
0.000000 0.806776 0.000000
0.000000 0.806776 0.000000
0.000000 0.806776 0.000000
0.000000 0.806776 0.000000
0.000000 0.806776 0.000000
0.000000 0.806776 0.000000
0.258497 0.813660 0.000000
0.440513 0.813660 0.000000
0.548374 0.813660 0.000000
0.632242 0.813660 0.000000
0.699050 0.813660 0.000000
0.753971 0.813660 0.000000
0.804466 0.811373 0.000000
0.849251 0.811373 0.000000
0.887264 0.811373 0.000000
0.923415 0.811373 0.080560
0.956065 0.811373 0.080560
0.000000 0.167429 0.000000
0.000000 0.167429 0.000000
0.000000 0.167429 0.000000
0.000000 0.167429 0.000000
0.000000 0.167429 0.000000
0.000000 0.167429 0.000000
0.110395 0.151280 0.000000
0.218708 0.132737 0.000000
0.292020 0.110395 0.000000
0.354232 0.110395 0.000000
0.405478 0.110395 0.000000
0.459110 0.080560 0.000000
0.506108 0.080560 0.000000
0.552025 0.080560 0.000000
0.597081 0.080560 0.000000
0.638386 0.080560 0.000000
0.676709 0.080560 0.000000
0.000000 0.167429 0.000000
