Pinyata/Assets/generated_lut-2.cube
TITLE "Exported LUT"
LUT_3D_SIZE 5
DOMAIN_MIN 0.0 0.0 0.0
DOMAIN_MAX 1.0 1.0 1.0
0.000000 0.167429 0.000000
0.000000 0.167429 0.000000
0.292020 0.110395 0.000000
0.506108 0.080560 0.000000
0.676709 0.080560 0.000000
0.000000 0.167429 0.000000
0.000000 0.167429 0.000000
0.292020 0.110395 0.000000
0.506108 0.080560 0.000000
0.676709 0.080560 0.000000
0.000000 0.400170 0.000000
0.000000 0.400170 0.000000
0.415850 0.410703 0.000000
0.707210 0.415850 0.000000
0.925374 0.420922 0.000000
0.000000 0.616558 0.000000
0.000000 0.616558 0.000000
0.493821 0.656407 0.000000
0.776095 0.668099 0.000000
0.948504 0.673853 0.000000
0.000000 0.806776 0.000000
0.000000 0.806776 0.000000
0.548374 0.813660 0.000000
0.804466 0.811373 0.000000
0.956065 0.811373 0.080560
0.000000 0.167429 0.000000
0.000000 0.167429 0.000000
0.292020 0.110395 0.000000
0.506108 0.080560 0.000000
0.676709 0.080560 0.000000
0.000000 0.167429 0.000000
0.000000 0.167429 0.000000
0.292020 0.110395 0.000000
0.506108 0.080560 0.000000
0.676709 0.080560 0.000000
0.000000 0.400170 0.000000
0.000000 0.400170 0.000000
0.415850 0.410703 0.000000
0.707210 0.415850 0.000000
0.925374 0.420922 0.000000
0.000000 0.616558 0.000000
0.000000 0.616558 0.000000
0.493821 0.656407 0.000000
0.776095 0.668099 0.000000
0.948504 0.673853 0.000000
0.000000 0.806776 0.000000
0.000000 0.806776 0.000000
0.548374 0.813660 0.000000
0.804466 0.811373 0.000000
0.956065 0.811373 0.080560
0.000000 0.151280 0.292020
0.000000 0.151280 0.292020
0.314409 0.110395 0.321460
0.548374 0.080560 0.335031
0.728438 0.000000 0.347973
0.000000 0.151280 0.292020
0.000000 0.151280 0.292020
0.314409 0.110395 0.321460
0.548374 0.080560 0.335031
0.728438 0.000000 0.347973
0.000000 0.400170 0.360361
0.000000 0.400170 0.360361
0.449927 0.415850 0.389294
0.751465 0.420922 0.405478
0.944696 0.435714 0.405478
0.000000 0.632242 0.400170
0.000000 0.632242 0.400170
0.529664 0.665199 0.410703
0.797487 0.673853 0.410703
0.959818 0.682376 0.410703
0.000000 0.813660 0.420922
0.000000 0.813660 0.420922
0.580248 0.813660 0.415850
0.822731 0.811373 0.410703
0.967273 0.811373 0.410703
0.000000 0.132737 0.430851
0.000000 0.132737 0.430851
0.335031 0.080560 0.489643
0.573349 0.000000 0.521953
0.758955 0.000000 0.544693
0.000000 0.132737 0.430851
0.000000 0.132737 0.430851
0.335031 0.080560 0.489643
0.573349 0.000000 0.521953
0.758955 0.000000 0.544693
0.000000 0.405478 0.559241
0.000000 0.405478 0.559241
0.468079 0.415850 0.619733
0.768805 0.425921 0.638386
0.952293 0.445250 0.626025
0.000000 0.641432 0.632242
0.000000 0.641432 0.632242
0.548374 0.668099 0.626025
0.809079 0.676709 0.606913
0.965416 0.685189 0.593761
0.000000 0.813660 0.641432
0.000000 0.813660 0.641432
0.600380 0.811373 0.606913
0.833905 0.811373 0.587051
0.970975 0.811373 0.576811
0.000000 0.132737 0.529664
0.000000 0.132737 0.529664
0.341576 0.080560 0.613363
0.590417 0.000000 0.656407
0.778507 0.000000 0.687988
0.000000 0.132737 0.529664
0.000000 0.132737 0.529664
0.341576 0.080560 0.613363
0.590417 0.000000 0.656407
0.778507 0.000000 0.687988
0.000000 0.405478 0.704503
0.000000 0.405478 0.704503
0.481157 0.415850 0.783303
0.776095 0.435714 0.788065
0.956065 0.454547 0.766357
0.000000 0.647472 0.799821
0.000000 0.647472 0.799821
0.559241 0.670983 0.766357
0.815939 0.679549 0.736210
0.969126 0.687988 0.715259
0.080560 0.813660 0.788065
0.080560 0.813660 0.788065
0.610149 0.811373 0.731039
0.840523 0.811373 0.701783
0.974660 0.811373 0.679549
