Pinyata/Assets/generated_lut-2.cube
TITLE "Exported LUT"
LUT_3D_SIZE 9
DOMAIN_MIN 0.0 0.0 0.0
DOMAIN_MAX 1.0 1.0 1.0
0.000000 0.167429 0.000000
0.000000 0.167429 0.000000
0.000000 0.167429 0.000000
0.110395 0.151280 0.000000
0.292020 0.110395 0.000000
0.405478 0.110395 0.000000
0.506108 0.080560 0.000000
0.597081 0.080560 0.000000
0.676709 0.080560 0.000000
0.000000 0.167429 0.000000
0.000000 0.167429 0.000000
0.000000 0.167429 0.000000
0.110395 0.151280 0.000000
0.292020 0.110395 0.000000
0.405478 0.110395 0.000000
0.506108 0.080560 0.000000
0.597081 0.080560 0.000000
0.676709 0.080560 0.000000
0.000000 0.167429 0.000000
0.000000 0.167429 0.000000
0.000000 0.167429 0.000000
0.110395 0.151280 0.000000
0.292020 0.110395 0.000000
0.405478 0.110395 0.000000
0.506108 0.080560 0.000000
0.597081 0.080560 0.000000
0.676709 0.080560 0.000000
0.000000 0.249261 0.000000
0.000000 0.249261 0.000000
0.000000 0.249261 0.000000
0.132737 0.239595 0.000000
0.347973 0.229437 0.000000
0.481157 0.218708 0.000000
0.597081 0.218708 0.000000
0.696304 0.207307 0.000000
0.788065 0.207307 0.000000
0.000000 0.400170 0.000000
0.000000 0.400170 0.000000
0.000000 0.400170 0.000000
0.167429 0.405478 0.000000
0.415850 0.410703 0.000000
0.576811 0.410703 0.000000
0.707210 0.415850 0.000000
0.820475 0.415850 0.000000
0.925374 0.420922 0.000000
0.000000 0.514104 0.000000
0.000000 0.514104 0.000000
0.000000 0.514104 0.000000
0.181896 0.525826 0.000000
0.459110 0.540983 0.000000
0.632242 0.552025 0.000000
0.758955 0.559241 0.000000
0.857873 0.566348 0.000000
0.940870 0.569861 0.000000
0.000000 0.616558 0.000000
0.000000 0.616558 0.000000
0.000000 0.616558 0.000000
0.207307 0.635323 0.000000
0.493821 0.656407 0.000000
0.659353 0.662284 0.000000
0.776095 0.668099 0.000000
0.870615 0.670983 0.000000
0.948504 0.673853 0.000000
0.000000 0.715259 0.000000
0.000000 0.715259 0.000000
0.000000 0.715259 0.000000
0.218708 0.738778 0.000000
0.521953 0.743884 0.000000
0.679549 0.746421 0.000000
0.792793 0.748948 0.000000
0.878987 0.748948 0.000000
0.952293 0.751465 0.000000
0.000000 0.806776 0.000000
0.000000 0.806776 0.000000
0.000000 0.806776 0.000000
0.258497 0.813660 0.000000
0.548374 0.813660 0.000000
0.699050 0.813660 0.000000
0.804466 0.811373 0.000000
0.887264 0.811373 0.000000
0.956065 0.811373 0.080560
0.000000 0.167429 0.000000
0.000000 0.167429 0.000000
0.000000 0.167429 0.000000
0.110395 0.151280 0.000000
0.292020 0.110395 0.000000
0.405478 0.110395 0.000000
0.506108 0.080560 0.000000
0.597081 0.080560 0.000000
0.676709 0.080560 0.000000
0.000000 0.167429 0.000000
0.000000 0.167429 0.000000
0.000000 0.167429 0.000000
0.110395 0.151280 0.000000
0.292020 0.110395 0.000000
0.405478 0.110395 0.000000
0.506108 0.080560 0.000000
0.597081 0.080560 0.000000
0.676709 0.080560 0.000000
0.000000 0.167429 0.000000
0.000000 0.167429 0.000000
0.000000 0.167429 0.000000
0.110395 0.151280 0.000000
0.292020 0.110395 0.000000
0.405478 0.110395 0.000000
0.506108 0.080560 0.000000
0.597081 0.080560 0.000000
0.676709 0.080560 0.000000
0.000000 0.249261 0.000000
0.000000 0.249261 0.000000
0.000000 0.249261 0.000000
0.132737 0.239595 0.000000
0.347973 0.229437 0.000000
0.481157 0.218708 0.000000
0.597081 0.218708 0.000000
0.696304 0.207307 0.000000
0.788065 0.207307 0.000000
0.000000 0.400170 0.000000
0.000000 0.400170 0.000000
0.000000 0.400170 0.000000
0.167429 0.405478 0.000000
0.415850 0.410703 0.000000
0.576811 0.410703 0.000000
0.707210 0.415850 0.000000
0.820475 0.415850 0.000000
0.925374 0.420922 0.000000
0.000000 0.514104 0.000000
0.000000 0.514104 0.000000
0.000000 0.514104 0.000000
0.181896 0.525826 0.000000
0.459110 0.540983 0.000000
0.632242 0.552025 0.000000
0.758955 0.559241 0.000000
0.857873 0.566348 0.000000
0.940870 0.569861 0.000000
0.000000 0.616558 0.000000
0.000000 0.616558 0.000000
0.000000 0.616558 0.000000
0.207307 0.635323 0.000000
0.493821 0.656407 0.000000
0.659353 0.662284 0.000000
0.776095 0.668099 0.000000
0.870615 0.670983 0.000000
0.948504 0.673853 0.000000
0.000000 0.715259 0.000000
0.000000 0.715259 0.000000
0.000000 0.715259 0.000000
0.218708 0.738778 0.000000
0.521953 0.743884 0.000000
0.679549 0.746421 0.000000
0.792793 0.748948 0.000000
0.878987 0.748948 0.000000
0.952293 0.751465 0.000000
0.000000 0.806776 0.000000
0.000000 0.806776 0.000000
0.000000 0.806776 0.000000
0.258497 0.813660 0.000000
0.548374 0.813660 0.000000
0.699050 0.813660 0.000000
0.804466 0.811373 0.000000
0.887264 0.811373 0.000000
0.956065 0.811373 0.080560
0.000000 0.167429 0.000000
0.000000 0.167429 0.000000
0.000000 0.167429 0.000000
0.110395 0.151280 0.000000
0.292020 0.110395 0.000000
0.405478 0.110395 0.000000
0.506108 0.080560 0.000000
0.597081 0.080560 0.000000
0.676709 0.080560 0.000000
0.000000 0.167429 0.000000
0.000000 0.167429 0.000000
0.000000 0.167429 0.000000
0.110395 0.151280 0.000000
0.292020 0.110395 0.000000
0.405478 0.110395 0.000000
0.506108 0.080560 0.000000
0.597081 0.080560 0.000000
0.676709 0.080560 0.000000
0.000000 0.167429 0.000000
0.000000 0.167429 0.000000
0.000000 0.167429 0.000000
0.110395 0.151280 0.000000
0.292020 0.110395 0.000000
0.405478 0.110395 0.000000
0.506108 0.080560 0.000000
0.597081 0.080560 0.000000
0.676709 0.080560 0.000000
0.000000 0.249261 0.000000
0.000000 0.249261 0.000000
0.000000 0.249261 0.000000
0.132737 0.239595 0.000000
0.347973 0.229437 0.000000
0.481157 0.218708 0.000000
0.597081 0.218708 0.000000
0.696304 0.207307 0.000000
0.788065 0.207307 0.000000
0.000000 0.400170 0.000000
0.000000 0.400170 0.000000
0.000000 0.400170 0.000000
0.167429 0.405478 0.000000
0.415850 0.410703 0.000000
0.576811 0.410703 0.000000
0.707210 0.415850 0.000000
0.820475 0.415850 0.000000
0.925374 0.420922 0.000000
0.000000 0.514104 0.000000
0.000000 0.514104 0.000000
0.000000 0.514104 0.000000
0.181896 0.525826 0.000000
0.459110 0.540983 0.000000
0.632242 0.552025 0.000000
0.758955 0.559241 0.000000
0.857873 0.566348 0.000000
0.940870 0.569861 0.000000
0.000000 0.616558 0.000000
0.000000 0.616558 0.000000
0.000000 0.616558 0.000000
0.207307 0.635323 0.000000
0.493821 0.656407 0.000000
0.659353 0.662284 0.000000
0.776095 0.668099 0.000000
0.870615 0.670983 0.000000
0.948504 0.673853 0.000000
0.000000 0.715259 0.000000
0.000000 0.715259 0.000000
0.000000 0.715259 0.000000
0.218708 0.738778 0.000000
0.521953 0.743884 0.000000
0.679549 0.746421 0.000000
0.792793 0.748948 0.000000
0.878987 0.748948 0.000000
0.952293 0.751465 0.000000
0.000000 0.806776 0.000000
0.000000 0.806776 0.000000
0.000000 0.806776 0.000000
0.258497 0.813660 0.000000
0.548374 0.813660 0.000000
0.699050 0.813660 0.000000
0.804466 0.811373 0.000000
0.887264 0.811373 0.000000
0.956065 0.811373 0.080560
0.000000 0.151280 0.151280
0.000000 0.151280 0.151280
0.000000 0.151280 0.151280
0.110395 0.132737 0.167429
0.299707 0.110395 0.167429
0.425921 0.080560 0.167429
0.525826 0.080560 0.167429
0.616558 0.080560 0.167429
0.701783 0.080560 0.151280
0.000000 0.151280 0.151280
0.000000 0.151280 0.151280
0.000000 0.151280 0.151280
0.110395 0.132737 0.167429
0.299707 0.110395 0.167429
0.425921 0.080560 0.167429
0.525826 0.080560 0.167429
0.616558 0.080560 0.167429
0.701783 0.080560 0.151280
0.000000 0.151280 0.151280
0.000000 0.151280 0.151280
0.000000 0.151280 0.151280
0.110395 0.132737 0.167429
0.299707 0.110395 0.167429
0.425921 0.080560 0.167429
0.525826 0.080560 0.167429
0.616558 0.080560 0.167429
0.701783 0.080560 0.151280
0.000000 0.239595 0.167429
0.000000 0.239595 0.167429
0.000000 0.239595 0.167429
0.132737 0.229437 0.167429
0.360361 0.218708 0.167429
0.497957 0.218708 0.167429
0.616558 0.207307 0.167429
0.717918 0.207307 0.167429
0.813660 0.207307 0.167429
0.000000 0.400170 0.167429
0.000000 0.400170 0.167429
0.000000 0.400170 0.167429
0.181896 0.405478 0.167429
0.430851 0.410703 0.167429
0.593761 0.415850 0.167429
0.725825 0.415850 0.167429
0.844901 0.420922 0.167429
0.937025 0.425921 0.167429
0.000000 0.518046 0.181896
0.000000 0.518046 0.181896
0.000000 0.518046 0.181896
0.195098 0.533469 0.181896
0.476845 0.548374 0.181896
0.644460 0.555647 0.181896
0.768805 0.562808 0.181896
0.866393 0.569861 0.195098
0.946602 0.576811 0.195098
0.000000 0.626025 0.181896
0.000000 0.626025 0.181896
0.000000 0.626025 0.181896
0.218708 0.644460 0.181896
0.510125 0.659353 0.181896
0.670983 0.665199 0.195098
0.785689 0.670983 0.195098
0.876903 0.673853 0.207307
0.952293 0.676709 0.207307
0.000000 0.723201 0.181896
0.000000 0.723201 0.181896
0.000000 0.723201 0.181896
0.239595 0.741336 0.181896
0.537242 0.746421 0.195098
0.690773 0.748948 0.207307
0.799821 0.748948 0.207307
0.887264 0.751465 0.218708
0.957943 0.753971 0.218708
0.000000 0.815939 0.181896
0.000000 0.815939 0.181896
0.000000 0.815939 0.181896
0.275870 0.813660 0.195098
0.562808 0.813660 0.207307
0.709905 0.813660 0.218708
0.813660 0.811373 0.229437
0.895449 0.811373 0.229437
0.961688 0.811373 0.239595
0.000000 0.151280 0.292020
0.000000 0.151280 0.292020
0.000000 0.151280 0.292020
0.110395 0.132737 0.299707
0.314409 0.110395 0.321460
0.445250 0.080560 0.328330
0.548374 0.080560 0.335031
0.641432 0.000000 0.341576
0.728438 0.000000 0.347973
0.000000 0.151280 0.292020
0.000000 0.151280 0.292020
0.000000 0.151280 0.292020
0.110395 0.132737 0.299707
0.314409 0.110395 0.321460
0.445250 0.080560 0.328330
0.548374 0.080560 0.335031
0.641432 0.000000 0.341576
0.728438 0.000000 0.347973
0.000000 0.151280 0.292020
0.000000 0.151280 0.292020
0.000000 0.151280 0.292020
0.110395 0.132737 0.299707
0.314409 0.110395 0.321460
0.445250 0.080560 0.328330
0.548374 0.080560 0.335031
0.641432 0.000000 0.341576
0.728438 0.000000 0.347973
0.000000 0.239595 0.321460
0.000000 0.239595 0.321460
0.000000 0.239595 0.321460
0.151280 0.229437 0.335031
0.378039 0.218708 0.354232
0.521953 0.207307 0.360361
0.638386 0.207307 0.366368
0.746421 0.207307 0.372258
0.842715 0.195098 0.378039
0.000000 0.400170 0.360361
0.000000 0.400170 0.360361
0.000000 0.400170 0.360361
0.181896 0.405478 0.372258
0.449927 0.415850 0.389294
0.616558 0.415850 0.400170
0.751465 0.420922 0.405478
0.860013 0.425921 0.405478
0.944696 0.435714 0.405478
0.000000 0.525826 0.383716
0.000000 0.525826 0.383716
0.000000 0.525826 0.383716
0.207307 0.537242 0.394777
0.493821 0.552025 0.410703
0.659353 0.562808 0.410703
0.780909 0.569861 0.410703
0.874813 0.576811 0.405478
0.954181 0.583662 0.405478
0.000000 0.632242 0.400170
0.000000 0.632242 0.400170
0.000000 0.632242 0.400170
0.229437 0.650467 0.415850
0.529664 0.665199 0.410703
0.685189 0.670983 0.410703
0.797487 0.673853 0.410703
0.885203 0.676709 0.410703
0.959818 0.682376 0.410703
0.000000 0.733630 0.415850
0.000000 0.733630 0.415850
0.000000 0.733630 0.415850
0.267353 0.743884 0.415850
0.555647 0.746421 0.415850
0.704503 0.748948 0.410703
0.811373 0.751465 0.410703
0.895449 0.753971 0.410703
0.963554 0.753971 0.410703
0.000000 0.813660 0.420922
0.000000 0.813660 0.420922
0.000000 0.813660 0.420922
0.299707 0.813660 0.415850
0.580248 0.813660 0.415850
0.723201 0.811373 0.410703
0.822731 0.811373 0.410703
0.901529 0.811373 0.410703
0.967273 0.811373 0.410703
0.000000 0.151280 0.366368
0.000000 0.151280 0.366368
0.000000 0.151280 0.366368
0.132737 0.110395 0.389294
0.328330 0.080560 0.415850
0.454547 0.080560 0.430851
0.562808 0.080560 0.440513
0.656407 0.000000 0.449927
0.746421 0.000000 0.459110
0.000000 0.151280 0.366368
0.000000 0.151280 0.366368
0.000000 0.151280 0.366368
0.132737 0.110395 0.389294
0.328330 0.080560 0.415850
0.454547 0.080560 0.430851
0.562808 0.080560 0.440513
0.656407 0.000000 0.449927
0.746421 0.000000 0.459110
0.000000 0.151280 0.366368
0.000000 0.151280 0.366368
0.000000 0.151280 0.366368
0.132737 0.110395 0.389294
0.328330 0.080560 0.415850
0.454547 0.080560 0.430851
0.562808 0.080560 0.440513
0.656407 0.000000 0.449927
0.746421 0.000000 0.459110
0.000000 0.239595 0.415850
0.000000 0.239595 0.415850
0.000000 0.239595 0.415850
0.151280 0.229437 0.435714
0.383716 0.218708 0.463620
0.533469 0.207307 0.476845
0.653445 0.207307 0.485422
0.761432 0.207307 0.493821
0.860013 0.195098 0.502052
0.000000 0.405478 0.472486
0.000000 0.405478 0.472486
0.000000 0.405478 0.472486
0.195098 0.410703 0.493821
0.459110 0.415850 0.518046
0.629142 0.420922 0.533469
0.763899 0.420922 0.540983
0.864273 0.430851 0.533469
0.948504 0.440513 0.529664
0.000000 0.529664 0.506108
0.000000 0.529664 0.506108
0.000000 0.529664 0.506108
0.218708 0.540983 0.525826
0.506108 0.555647 0.544693
0.668099 0.566348 0.537242
0.785689 0.573349 0.529664
0.878987 0.580248 0.525826
0.956065 0.587051 0.521953
0.000000 0.638386 0.529664
0.000000 0.638386 0.529664
0.000000 0.638386 0.529664
0.239595 0.656407 0.548374
0.540983 0.665199 0.537242
0.693545 0.670983 0.529664
0.804466 0.676709 0.521953
0.891368 0.679549 0.518046
0.961688 0.682376 0.514104
0.000000 0.738778 0.552025
0.000000 0.738778 0.552025
0.000000 0.738778 0.552025
0.284083 0.743884 0.540983
0.566348 0.748948 0.529664
0.712588 0.751465 0.521953
0.818211 0.751465 0.518046
0.899508 0.753971 0.514104
0.965416 0.753971 0.510125
0.000000 0.813660 0.548374
0.000000 0.813660 0.548374
0.000000 0.813660 0.548374
0.314409 0.813660 0.537242
0.590417 0.813660 0.525826
0.731039 0.811373 0.518046
0.829457 0.811373 0.514104
0.905556 0.811373 0.510125
0.969126 0.811373 0.506108
0.000000 0.132737 0.430851
0.000000 0.132737 0.430851
0.000000 0.132737 0.430851
0.132737 0.110395 0.454547
0.335031 0.080560 0.489643
0.463620 0.080560 0.510125
0.573349 0.000000 0.521953
0.668099 0.000000 0.533469
0.758955 0.000000 0.544693
0.000000 0.132737 0.430851
0.000000 0.132737 0.430851
0.000000 0.132737 0.430851
0.132737 0.110395 0.454547
0.335031 0.080560 0.489643
0.463620 0.080560 0.510125
0.573349 0.000000 0.521953
0.668099 0.000000 0.533469
0.758955 0.000000 0.544693
0.000000 0.132737 0.430851
0.000000 0.132737 0.430851
0.000000 0.132737 0.430851
0.132737 0.110395 0.454547
0.335031 0.080560 0.489643
0.463620 0.080560 0.510125
0.573349 0.000000 0.521953
0.668099 0.000000 0.533469
0.758955 0.000000 0.544693
0.000000 0.229437 0.489643
0.000000 0.229437 0.489643
0.000000 0.229437 0.489643
0.151280 0.229437 0.518046
0.394777 0.218708 0.548374
0.540983 0.207307 0.566348
0.665199 0.207307 0.580248
0.773674 0.195098 0.593761
0.872717 0.195098 0.603657
0.000000 0.405478 0.559241
0.000000 0.405478 0.559241
0.000000 0.405478 0.559241
0.195098 0.410703 0.587051
0.468079 0.415850 0.619733
0.638386 0.420922 0.638386
0.768805 0.425921 0.638386
0.868507 0.435714 0.632242
0.952293 0.445250 0.626025
0.000000 0.529664 0.600380
0.000000 0.529664 0.600380
0.000000 0.529664 0.600380
0.218708 0.544693 0.629142
0.514104 0.559241 0.641432
0.676709 0.569861 0.629142
0.792793 0.576811 0.619733
0.883137 0.583662 0.613363
0.959818 0.590417 0.606913
0.000000 0.641432 0.632242
0.000000 0.641432 0.632242
0.000000 0.641432 0.632242
0.249261 0.656407 0.647472
0.548374 0.668099 0.626025
0.699050 0.673853 0.616558
0.809079 0.676709 0.606913
0.893411 0.682376 0.600380
0.965416 0.685189 0.593761
0.000000 0.741336 0.653445
0.000000 0.741336 0.653445
0.000000 0.741336 0.653445
0.292020 0.743884 0.635323
0.576811 0.748948 0.616558
0.720565 0.751465 0.606913
0.822731 0.753971 0.597081
0.901529 0.753971 0.590417
0.969126 0.756468 0.583662
0.000000 0.813660 0.641432
0.000000 0.813660 0.641432
0.000000 0.813660 0.641432
0.328330 0.813660 0.626025
0.600380 0.811373 0.606913
0.736210 0.811373 0.597081
0.833905 0.811373 0.587051
0.909561 0.811373 0.580248
0.970975 0.811373 0.576811
0.000000 0.132737 0.481157
0.000000 0.132737 0.481157
0.000000 0.132737 0.481157
0.132737 0.110395 0.514104
0.341576 0.080560 0.555647
0.472486 0.080560 0.576811
0.580248 0.000000 0.593761
0.679549 0.000000 0.606913
0.768805 0.000000 0.619733
0.000000 0.132737 0.481157
0.000000 0.132737 0.481157
0.000000 0.132737 0.481157
0.132737 0.110395 0.514104
0.341576 0.080560 0.555647
0.472486 0.080560 0.576811
0.580248 0.000000 0.593761
0.679549 0.000000 0.606913
0.768805 0.000000 0.619733
0.000000 0.132737 0.481157
0.000000 0.132737 0.481157
0.000000 0.132737 0.481157
0.132737 0.110395 0.514104
0.341576 0.080560 0.555647
0.472486 0.080560 0.576811
0.580248 0.000000 0.593761
0.679549 0.000000 0.606913
0.768805 0.000000 0.619733
0.000000 0.229437 0.552025
0.000000 0.229437 0.552025
0.000000 0.229437 0.552025
0.167429 0.218708 0.583662
0.400170 0.207307 0.622888
0.548374 0.207307 0.644460
0.673853 0.207307 0.662284
0.783303 0.195098 0.676709
0.883137 0.195098 0.687988
0.000000 0.405478 0.635323
0.000000 0.405478 0.635323
0.000000 0.405478 0.635323
0.207307 0.410703 0.668099
0.476845 0.415850 0.707210
0.647472 0.420922 0.728438
0.773674 0.430851 0.717918
0.872717 0.440513 0.709905
0.954181 0.449927 0.701783
0.000000 0.533469 0.685189
0.000000 0.533469 0.685189
0.000000 0.533469 0.685189
0.229437 0.544693 0.715259
0.521953 0.562808 0.720565
0.679549 0.573349 0.707210
0.795144 0.580248 0.696304
0.887264 0.587051 0.685189
0.961688 0.590417 0.679549
0.000000 0.644460 0.720565
0.000000 0.644460 0.720565
0.000000 0.644460 0.720565
0.258497 0.659353 0.728438
0.555647 0.668099 0.701783
0.704503 0.673853 0.687988
0.811373 0.679549 0.676709
0.897481 0.682376 0.668099
0.967273 0.685189 0.659353
0.000000 0.741336 0.733630
0.000000 0.741336 0.733630
0.000000 0.741336 0.733630
0.299707 0.743884 0.712588
0.580248 0.748948 0.687988
0.723201 0.751465 0.673853
0.824981 0.753971 0.662284
0.905556 0.753971 0.653445
0.970975 0.756468 0.644460
0.080560 0.813660 0.720565
0.080560 0.813660 0.720565
0.080560 0.813660 0.720565
0.335031 0.813660 0.699050
0.606913 0.811373 0.673853
0.741336 0.811373 0.659353
0.836118 0.811373 0.647472
0.911556 0.811373 0.638386
0.972820 0.811373 0.632242
0.000000 0.132737 0.529664
0.000000 0.132737 0.529664
0.000000 0.132737 0.529664
0.132737 0.110395 0.569861
0.341576 0.080560 0.613363
0.476845 0.080560 0.638386
0.590417 0.000000 0.656407
0.687988 0.000000 0.673853
0.778507 0.000000 0.687988
0.000000 0.132737 0.529664
0.000000 0.132737 0.529664
0.000000 0.132737 0.529664
0.132737 0.110395 0.569861
0.341576 0.080560 0.613363
0.476845 0.080560 0.638386
0.590417 0.000000 0.656407
0.687988 0.000000 0.673853
0.778507 0.000000 0.687988
0.000000 0.132737 0.529664
0.000000 0.132737 0.529664
0.000000 0.132737 0.529664
0.132737 0.110395 0.569861
0.341576 0.080560 0.613363
0.476845 0.080560 0.638386
0.590417 0.000000 0.656407
0.687988 0.000000 0.673853
0.778507 0.000000 0.687988
0.000000 0.229437 0.610149
0.000000 0.229437 0.610149
0.000000 0.229437 0.610149
0.167429 0.218708 0.647472
0.405478 0.207307 0.690773
0.555647 0.207307 0.715259
0.682376 0.195098 0.733630
0.792793 0.195098 0.748948
0.893411 0.195098 0.763899
0.000000 0.405478 0.704503
0.000000 0.405478 0.704503
0.000000 0.405478 0.704503
0.207307 0.410703 0.741336
0.481157 0.415850 0.783303
0.653445 0.420922 0.802148
0.776095 0.435714 0.788065
0.874813 0.445250 0.778507
0.956065 0.454547 0.766357
0.000000 0.533469 0.756468
0.000000 0.533469 0.756468
0.000000 0.533469 0.756468
0.229437 0.548374 0.792793
0.525826 0.562808 0.790433
0.685189 0.573349 0.773674
0.799821 0.580248 0.758955
0.889318 0.587051 0.748948
0.963554 0.593761 0.738778
0.000000 0.647472 0.799821
0.000000 0.647472 0.799821
0.000000 0.647472 0.799821
0.267353 0.659353 0.797487
0.559241 0.670983 0.766357
0.709905 0.676709 0.748948
0.815939 0.679549 0.736210
0.899508 0.685189 0.725825
0.969126 0.687988 0.715259
0.000000 0.741336 0.804466
0.000000 0.741336 0.804466
0.000000 0.741336 0.804466
0.307164 0.746421 0.778507
0.587051 0.748948 0.748948
0.728438 0.751465 0.731039
0.829457 0.753971 0.717918
0.907561 0.756468 0.707210
0.970975 0.756468 0.696304
0.080560 0.813660 0.788065
0.080560 0.813660 0.788065
0.080560 0.813660 0.788065
0.347973 0.813660 0.761432
0.610149 0.811373 0.731039
0.746421 0.811373 0.712588
0.840523 0.811373 0.701783
0.913545 0.811373 0.690773
0.974660 0.811373 0.679549
